!!!!SEGMENT: pl-cz--iii-574--002_rodowski-aleksander--missa-in-c-christe.krn
!!!cenid: 18xx:1020
!!!COM: Rodowski, Aleksander
!!!COM-rismid: pe30009627
!!!CDT: <1790->1810
!!!CNT: Polish
!!!OPR: Missa in C
!!!OTL: Christe
!!!OMV: 002
!!!PDT: 1801
!!!AGN: Sacred; Mass
!!!SMS-siglum: PL-CZ
!!!SMS-shelfmark: III-574
!!!SMS-shelfwork: 001-002 M
!!!SMS-variant:
!!!SMS-altvar:
!!!NIFC-rismid: 300001098
!!!URL-scan: http://repozytorium.nifc.pl/skany/pl-cz-nut--iii-574
!!!ONB-nifc: UWAGA: części Mszy: Kyrie, Christe, Gloria, Credo, Sanctus, Pleni, Benedictus, Agnus Dei
!!!AIN: 1 alto 1 bass 2 clars 1 clrno 2 cor 2 oboe 1 organ 1 soprn 1 timpa 1 tromp 2 violn
!!!key: F
**kern	**fba	**dynam	**kern	**dynam	**kern	**dynam	**kern	**kern	**kern	**text	**kern	**kern	**kern	**kern	**kern	**kern	**kern	**kern	**kern
*	*	*	*group4	*	*group4	*	*group3	*group3	*group3	*	*	*group2	*group2	*group2	*group2	*group1	*group1	*group1	*group1
*part15	*	*part15	*part14	*part14	*part13	*part13	*part12	*part11	*part10	*part10	*part9	*part8	*part7	*part6	*part5	*part4	*part3	*part2	*part1
*staff15	*	*	*staff14	*	*staff13	*	*staff12	*staff11	*staff10	*staff10	*staff9	*staff8	*staff7	*staff6	*staff5	*staff4	*staff3	*staff2	*staff1
*I"Organo.	*	*	*I"Violino Secondo.	*	*I"Violino Primo.	*	*I"Basſo.	*I"Alto.	*I"Canto.	*	*I"Tympano in C.	*I"Clarino Secondo in C.	*I"Clarino Primo. in C.	*I"Cornu. Secondo.	*I"Cornu. Primo. ex. C.	*I"Clarinetto Secondo. in B.	*I"Clarinetto Primo. in B.	*I"Oboe Secondo.	*I"Oboe Primo.
*I'org	*	*	*I'vl 2	*	*I'vl 1	*	*I'B	*I'A	*I'S	*	*I'timp	*I'clno 2	*I'clno 1	*I'cor 2	*I'cor 1	*I'cl 2 in B	*I'cl 1 in B	*I'ob 2	*I'ob 1
*Iorgan	*	*	*Ivioln	*	*Ivioln	*	*Ibass	*Ialto	*Isoprn	*	*Itimpa	*Iclrno	*Itromp	*Icor	*Icor	*Iclars	*Iclars	*Ioboe	*Ioboe
*ICklav	*	*	*ICstr	*	*ICstr	*	*ICvox	*ICvox	*ICvox	*	*ICidio	*ICbras	*ICbras	*ICbras	*ICbras	*ICww	*ICww	*ICww	*ICww
*IGcont	*	*	*	*	*	*	*	*	*IGsolo	*	*	*	*	*	*	*	*	*	*
*clefF4	*	*	*clefG2	*	*clefG2	*	*clefF4	*clefG2	*clefC1	*	*clefF4	*clefG2	*clefG2	*clefG2	*clefG2	*clefG2	*clefG2	*clefG2	*clefG2
*	*	*	*	*	*	*	*	*	*	*	*	*	*	*	*	*ITrd1c2	*ITrd1c2	*	*
*k[b-]	*	*	*k[b-]	*	*k[b-]	*	*k[b-]	*k[b-]	*k[b-]	*	*k[b-]	*k[b-]	*k[b-]	*k[b-]	*k[b-]	*k[b-]	*k[b-]	*k[b-]	*k[b-]
*F:	*	*	*F:	*	*F:	*	*F:	*F:	*F:	*	*F:	*F:	*F:	*F:	*F:	*F:	*F:	*F:	*F:
*M3/4	*	*	*M3/4	*	*M3/4	*	*M3/4	*M3/4	*M3/4	*	*M3/4	*M3/4	*M3/4	*M3/4	*M3/4	*M3/4	*M3/4	*M3/4	*M3/4
=1	=1	=1	=1	=1	=1	=1	=1	=1	=1	=1	=1	=1	=1	=1	=1	=1	=1	=1	=1
*2\right	*	*	*	*	*	*	*	*	*	*	*	*	*	*	*	*	*	*	*
*tremolo	*	*	*	*below	*	*below	*	*	*	*	*	*	*	*	*	*	*	*	*
!	!	!LO:DY:t=piano	!	!LO:DY:t=for	!	!LO:DY:t=for	!LO:TX:a:i:t=Christe Tacet.	!LO:TX:a:i:t=Christe Tacet.	!LO:TX:a:t=10.	!	!LO:TX:a:i:t=Criste Tacet.	!LO:TX:a:i:t=Christe Tacet.	!LO:TX:a:i:t=Chriſte Tacet.	!LO:TX:a:i:t=Christe Tacet.	!LO:TX:a:i:t=Christe \nTacet.	!LO:TX:a:t=7.	!LO:TX:a:t=7.	!LO:TX:a:t=7.	!LO:TX:a:t=7.
!LO:TX:a:i:t=Adagio. Solo.	!	!	!LO:TX:a:i:t=Adagio Solo.	!	!LO:TX:a:i:t=adagio.	!	!	!	!LO:TX:a:i:rj:t=adagio.	!	!	!	!	!	!	!LO:TX:a:i:rj:t=Adagio.	!	!	!
8F\L	.	p	16c/LL	f	16cc\LL	f	2.ryy	2.ryy	0.r	.	2.ryy	2.ryy	2.ryy	2.ryy	2.ryy	0.r	0.r	0.r	0.r
.	.	.	16f/	.	16aa\	.	.	.	.	.	.	.	.	.	.	.	.	.	.
8F\	.	.	16a/	.	16ff\	.	.	.	.	.	.	.	.	.	.	.	.	.	.
.	.	.	16f/JJ	.	16dd\JJ	.	.	.	.	.	.	.	.	.	.	.	.	.	.
8F\	.	.	16c/LL	.	4cc\	.	.	.	.	.	.	.	.	.	.	.	.	.	.
.	.	.	16f/	.	.	.	.	.	.	.	.	.	.	.	.	.	.	.	.
8F\J	.	.	16a/	.	.	.	.	.	.	.	.	.	.	.	.	.	.	.	.
.	.	.	16f/JJ	.	.	.	.	.	.	.	.	.	.	.	.	.	.	.	.
*Xtremolo	*	*	*	*	*	*	*	*	*	*	*	*	*	*	*	*	*	*	*
8E\L	6 5 3	.	16c/LL	.	16g\LL	.	.	.	.	.	.	.	.	.	.	.	.	.	.
.	.	.	16e/	.	16cc\	.	.	.	.	.	.	.	.	.	.	.	.	.	.
8E\J	.	.	16g/	.	16b-\	.	.	.	.	.	.	.	.	.	.	.	.	.	.
.	.	.	16e/JJ	.	16g\JJ	.	.	.	.	.	.	.	.	.	.	.	.	.	.
=2	=2	=2	=2	=2	=2	=2	=2	=2	=2	=2	=2	=2	=2	=2	=2	=2	=2	=2	=2
*tremolo	*	*	*	*	*	*	*	*	*	*	*	*	*	*	*	*	*	*	*
8F\L	.	.	16c/LL	.	16b-/LL	.	2.ryy	2.ryy	.	.	2.ryy	2.ryy	2.ryy	2.ryy	2.ryy	.	.	.	.
.	.	.	16f/	.	16a/	.	.	.	.	.	.	.	.	.	.	.	.	.	.
8F\	.	.	16a/	.	16g/	.	.	.	.	.	.	.	.	.	.	.	.	.	.
.	.	.	16f/JJ	.	16f/JJ	.	.	.	.	.	.	.	.	.	.	.	.	.	.
8F\	.	.	16c/LL	.	4.f/	.	.	.	.	.	.	.	.	.	.	.	.	.	.
.	.	.	16f/	.	.	.	.	.	.	.	.	.	.	.	.	.	.	.	.
8F\	.	.	16a/	.	.	.	.	.	.	.	.	.	.	.	.	.	.	.	.
.	.	.	16f/JJ	.	.	.	.	.	.	.	.	.	.	.	.	.	.	.	.
8F\	.	.	16c/LL	.	.	.	.	.	.	.	.	.	.	.	.	.	.	.	.
.	.	.	16f/	.	.	.	.	.	.	.	.	.	.	.	.	.	.	.	.
8F\J	.	.	16a/	.	16a/LL	.	.	.	.	.	.	.	.	.	.	.	.	.	.
.	.	.	16f/JJ	.	16cc/JJ	.	.	.	.	.	.	.	.	.	.	.	.	.	.
=3	=3	=3	=3	=3	=3	=3	=3	=3	=3	=3	=3	=3	=3	=3	=3	=3	=3	=3	=3
8F\L	6 4	.	16d/LL	.	16cc#X\LL	.	2.ryy	2.ryy	.	.	2.ryy	2.ryy	2.ryy	2.ryy	2.ryy	.	.	.	.
.	.	.	16f/	.	16dd\JJ	.	.	.	.	.	.	.	.	.	.	.	.	.	.
8F\	.	.	16b-/	.	4dd\	.	.	.	.	.	.	.	.	.	.	.	.	.	.
.	.	.	16f/JJ	.	.	.	.	.	.	.	.	.	.	.	.	.	.	.	.
*	*	*	*rep	*	*	*	*	*	*	*	*	*	*	*	*	*	*	*	*
8F\	.	.	16d/LL	.	.	.	.	.	.	.	.	.	.	.	.	.	.	.	.
.	.	.	16f/	.	.	.	.	.	.	.	.	.	.	.	.	.	.	.	.
8F\	.	.	16b-/	.	16ee\LL	.	.	.	.	.	.	.	.	.	.	.	.	.	.
.	.	.	16f/JJ	.	16ff\JJ	.	.	.	.	.	.	.	.	.	.	.	.	.	.
*	*	*	*Xrep	*	*	*	*	*	*	*	*	*	*	*	*	*	*	*	*
*	*	*	*rep	*	*	*	*	*	*	*	*	*	*	*	*	*	*	*	*
8F\	.	.	16d/LL	.	16gg\LL	.	.	.	.	.	.	.	.	.	.	.	.	.	.
.	.	.	16f/	.	16aa\	.	.	.	.	.	.	.	.	.	.	.	.	.	.
8F\J	.	.	16b-/	.	16bb-\	.	.	.	.	.	.	.	.	.	.	.	.	.	.
.	.	.	16f/JJ	.	16dd\JJ	.	.	.	.	.	.	.	.	.	.	.	.	.	.
*	*	*	*Xrep	*	*	*	*	*	*	*	*	*	*	*	*	*	*	*	*
=4	=4	=4	=4	=4	=4	=4	=4	=4	=4	=4	=4	=4	=4	=4	=4	=4	=4	=4	=4
8F\L	5 3	.	16c/LL	.	16bn\LL	.	2.ryy	2.ryy	.	.	2.ryy	2.ryy	2.ryy	2.ryy	2.ryy	.	.	.	.
.	.	.	16f/	.	16cc\	.	.	.	.	.	.	.	.	.	.	.	.	.	.
8F\	.	.	16a/	.	16dd\	.	.	.	.	.	.	.	.	.	.	.	.	.	.
.	.	.	16f/JJ	.	16cc\JJ	.	.	.	.	.	.	.	.	.	.	.	.	.	.
*	*	*	*rep	*	*	*	*	*	*	*	*	*	*	*	*	*	*	*	*
8F\	.	.	16c/LL	.	4cc\	.	.	.	.	.	.	.	.	.	.	.	.	.	.
.	.	.	16f/	.	.	.	.	.	.	.	.	.	.	.	.	.	.	.	.
8F\J	.	.	16a/	.	.	.	.	.	.	.	.	.	.	.	.	.	.	.	.
.	.	.	16f/JJ	.	.	.	.	.	.	.	.	.	.	.	.	.	.	.	.
*Xtremolo	*	*	*Xrep	*	*	*	*	*	*	*	*	*	*	*	*	*	*	*	*
*	*	*	*rep	*	*	*	*	*	*	*	*	*	*	*	*	*	*	*	*
8A\L	6 3	.	16c/LL	.	16cc\LL	.	.	.	.	.	.	.	.	.	.	.	.	.	.
.	.	.	16f/	.	16ff\	.	.	.	.	.	.	.	.	.	.	.	.	.	.
8A\J	.	.	16a/	.	16aa\	.	.	.	.	.	.	.	.	.	.	.	.	.	.
.	.	.	16f/JJ	.	16ccc\JJ	.	.	.	.	.	.	.	.	.	.	.	.	.	.
*	*	*	*Xrep	*	*	*	*	*	*	*	*	*	*	*	*	*	*	*	*
!	!	!	!LO:LB:g=original	!	!LO:LB:g=original	!	!	!	!	!	!	!	!	!	!	!	!	!	!
=5	=5	=5	=5	=5	=5	=5	=5	=5	=5	=5	=5	=5	=5	=5	=5	=5	=5	=5	=5
*tremolo	*	*	*	*	*	*	*	*	*	*	*	*	*	*	*	*	*	*	*
8G\L	6 3	.	16B-/LL	.	16ccc\LL	.	2.ryy	2.ryy	0.r	.	2.ryy	2.ryy	2.ryy	2.ryy	2.ryy	1.r	1.r	1.r	1.r
.	.	.	16c/	.	16bb-\	.	.	.	.	.	.	.	.	.	.	.	.	.	.
8G\	.	.	16e/	.	16aa\	.	.	.	.	.	.	.	.	.	.	.	.	.	.
.	.	.	16c/JJ	.	16gg\JJ	.	.	.	.	.	.	.	.	.	.	.	.	.	.
8G\	.	.	16B-/LL	.	16ff#X\LL	.	.	.	.	.	.	.	.	.	.	.	.	.	.
.	.	.	16c/	.	16gg\	.	.	.	.	.	.	.	.	.	.	.	.	.	.
8G\J	.	.	16e/	.	16bb-\	.	.	.	.	.	.	.	.	.	.	.	.	.	.
.	.	.	16c/JJ	.	16gg\JJ	.	.	.	.	.	.	.	.	.	.	.	.	.	.
*Xtremolo	*	*	*	*	*	*	*	*	*	*	*	*	*	*	*	*	*	*	*
8C/L	7	.	16B-/LL	.	16dd\LL	.	.	.	.	.	.	.	.	.	.	.	.	.	.
.	.	.	16A/	.	16ffn\	.	.	.	.	.	.	.	.	.	.	.	.	.	.
8C/J	.	.	16G/	.	16ee\	.	.	.	.	.	.	.	.	.	.	.	.	.	.
.	.	.	16A/JJ	.	16gg\JJ	.	.	.	.	.	.	.	.	.	.	.	.	.	.
=6	=6	=6	=6	=6	=6	=6	=6	=6	=6	=6	=6	=6	=6	=6	=6	=6	=6	=6	=6
!LO:TX:t=P:problem=mixed beam	!	!	!	!	!	!	!	!	!	!	!	!	!	!	!	!	!	!	!
8F\L	6 3	.	16A/LL	.	8.ff\L	.	2.ryy	2.ryy	.	.	2.ryy	2.ryy	2.ryy	2.ryy	2.ryy	.	.	.	.
.	.	.	16c/	.	.	.	.	.	.	.	.	.	.	.	.	.	.	.	.
8AA/J	.	.	16f/	.	.	.	.	.	.	.	.	.	.	.	.	.	.	.	.
.	.	.	16c/JJ	.	16gg\Jk	.	.	.	.	.	.	.	.	.	.	.	.	.	.
*tremolo	*	*	*rep	*	*	*	*	*	*	*	*	*	*	*	*	*	*	*	*
8AA/L	.	.	16A/LL	.	16ff\LL	.	.	.	.	.	.	.	.	.	.	.	.	.	.
.	.	.	16c/	.	16gg\	.	.	.	.	.	.	.	.	.	.	.	.	.	.
8AA/	.	.	16f/	.	16aa\	.	.	.	.	.	.	.	.	.	.	.	.	.	.
.	.	.	16c/JJ	.	16bb-\JJ	.	.	.	.	.	.	.	.	.	.	.	.	.	.
*	*	*	*Xrep	*	*	*	*	*	*	*	*	*	*	*	*	*	*	*	*
*	*	*	*rep	*	*	*	*	*	*	*	*	*	*	*	*	*	*	*	*
8AA/	.	.	16A/LL	.	16ccc\LL	.	.	.	.	.	.	.	.	.	.	.	.	.	.
.	.	.	16c/	.	16ddd\	.	.	.	.	.	.	.	.	.	.	.	.	.	.
8AA/J	.	.	16f/	.	16eee\	.	.	.	.	.	.	.	.	.	.	.	.	.	.
.	.	.	16c/JJ	.	16fff\JJ	.	.	.	.	.	.	.	.	.	.	.	.	.	.
*	*	*	*Xrep	*	*	*	*	*	*	*	*	*	*	*	*	*	*	*	*
=7	=7	=7	=7	=7	=7	=7	=7	=7	=7	=7	=7	=7	=7	=7	=7	=7	=7	=7	=7
8BB-/L	6	.	16B-/LL	.	16fff\LL	.	2.ryy	2.ryy	.	.	2.ryy	2.ryy	2.ryy	2.ryy	2.ryy	2.r	2.r	2.r	2.r
.	.	.	16b-/	.	16ddd\	.	.	.	.	.	.	.	.	.	.	.	.	.	.
8BB-/	.	.	16b-/	.	16ddd\	.	.	.	.	.	.	.	.	.	.	.	.	.	.
.	.	.	16g/JJ	.	16bb-\JJ	.	.	.	.	.	.	.	.	.	.	.	.	.	.
8BB-/	.	.	16dd\LL	.	16bb-\LL	.	.	.	.	.	.	.	.	.	.	.	.	.	.
.	.	.	16b-\	.	16gg\	.	.	.	.	.	.	.	.	.	.	.	.	.	.
8BB-/J	.	.	16b-\	.	16gg\	.	.	.	.	.	.	.	.	.	.	.	.	.	.
.	.	.	16cc\JJ	.	16aa\JJ	.	.	.	.	.	.	.	.	.	.	.	.	.	.
*Xtremolo	*	*	*	*	*	*	*	*	*	*	*	*	*	*	*	*	*	*	*
8C/L	7	.	16dd\LL	.	16bb-\LL	.	.	.	.	.	.	.	.	.	.	.	.	.	.
.	.	.	16b-\	.	16gg\	.	.	.	.	.	.	.	.	.	.	.	.	.	.
8CC/J	5	.	16b-\	.	16dd\	.	.	.	.	.	.	.	.	.	.	.	.	.	.
.	.	.	16cc\JJ	.	16ee\JJ	.	.	.	.	.	.	.	.	.	.	.	.	.	.
!LO:LB:g=original	!	!	!	!	!	!	!	!	!	!	!	!	!	!	!	!	!	!	!
=8	=8	=8	=8	=8	=8	=8	=8	=8	=8	=8	=8	=8	=8	=8	=8	=8	=8	=8	=8
!	!	!	!	!	!	!	!	!	!	!	!	!	!	!	!	!LO:TX:a:i:t=Solo	!LO:TX:a:i:t=Solo	!	!LO:TX:a:i:t=Solo
4FF/	.	.	4a 4f/	.	4ff\	.	2.ryy	2.ryy	.	.	2.ryy	2.ryy	2.ryy	2.ryy	2.ryy	8r	8r	8r	8r
!	!	!	!	!	!	!	!	!	!	!	!	!	!	!	!	!	!	!	!LO:TX:a:i:t=Adagio.
.	.	.	.	.	.	.	.	.	.	.	.	.	.	.	.	8ff\L	8aa\L	8ff\L	8aa\L
4r	.	.	4r	.	4r	.	.	.	.	.	.	.	.	.	.	(8gg\	8bb-\	8gg\	8bb-\
.	.	.	.	.	.	.	.	.	.	.	.	.	.	.	.	8aa\	8ccc\	8aa\	8ccc\
!	!	!	!	!LO:DY:t=pia	!	!LO:DY:t=pia	!	!	!	!	!	!	!	!	!	!	!	!	!
4C/	.	.	4g 4c/	p	4ee 4b-\	p	.	.	.	.	.	.	.	.	.	8gg\	8bb-\	8gg\	8bb-\
.	.	.	.	.	.	.	.	.	.	.	.	.	.	.	.	8ee\J)	8gg\J	8ee\J	8gg\J
=9	=9	=9	=9	=9	=9	=9	=9	=9	=9	=9	=9	=9	=9	=9	=9	=9	=9	=9	=9
4F\	.	.	4a 4f/	.	4ff 4a\	.	2.ryy	2.ryy	1.r	.	2.ryy	2.ryy	2.ryy	2.ryy	2.ryy	8ff\L	8aa\L	8ff\L	8aa\L
.	.	.	.	.	.	.	.	.	.	.	.	.	.	.	.	(8a\	8ff\	8a\	8ff\
4r	.	.	4r	.	4r	.	.	.	.	.	.	.	.	.	.	8b-\	8gg\	8b-\	8gg\
.	.	.	.	.	.	.	.	.	.	.	.	.	.	.	.	8cc\	8aa\	8cc\	8aa\
4C/	.	.	4g 4c/	.	4ee 4b-\	.	.	.	.	.	.	.	.	.	.	8b-\	8gg\	8b-\	8gg\
.	.	.	.	.	.	.	.	.	.	.	.	.	.	.	.	8g\J)	8ee\J	8g\J	8ee\J
=10	=10	=10	=10	=10	=10	=10	=10	=10	=10	=10	=10	=10	=10	=10	=10	=10	=10	=10	=10
4F\	.	.	4a 4f/	.	4ff 4a\	.	2.ryy	2.ryy	.	.	2.ryy	2.ryy	2.ryy	2.ryy	2.ryy	8a\L	8ff\L	8a\L	8ff\L
.	.	.	.	.	.	.	.	.	.	.	.	.	.	.	.	16cc\L	16aa\L	16cc\L	16aa\L
.	.	.	.	.	.	.	.	.	.	.	.	.	.	.	.	16b-\JJ	16gg\JJ	16b-\JJ	16gg\JJ
4FF/	.	.	4a 4f/	.	4f/	.	.	.	.	.	.	.	.	.	.	4a\	4ff\	4a/	4ff\
4r	.	.	4r	.	4r	.	.	.	.	.	.	.	.	.	.	4r	4r	4r	4r
!	!	!	!	!	!LO:LB:g=original	!	!	!	!	!	!	!	!	!	!	!	!	!	!
=11	=11	=11	=11	=11	=11	=11	=11	=11	=11	=11	=11	=11	=11	=11	=11	=11	=11	=11	=11
*tremolo	*	*	*tremolo	*	*tremolo	*	*	*	*	*	*	*	*	*	*	*	*	*	*
!	!	!LO:DY:t=pia	!	!	!	!LO:DY:t=piano.	!	!	!	!	!	!	!	!	!	!LO:TX:a:t=5.	!LO:TX:a:t=5	!LO:TX:a:t=5.	!LO:TX:a:t=5.
8F\L	5 3	p	8c/L	.	8a/L	p	2.ryy	2.ryy	16dd\LL	Chri-	2.ryy	2.ryy	2.ryy	2.ryy	2.ryy	0.r	0.r	0.r	0.r
.	.	.	.	.	.	.	.	.	16aa\	.	.	.	.	.	.	.	.	.	.
8F\	.	.	8c/	.	8a/	.	.	.	16ff\	.	.	.	.	.	.	.	.	.	.
.	.	.	.	.	.	.	.	.	16dd\JJ	.	.	.	.	.	.	.	.	.	.
8F\	.	.	8c/	.	8a/	.	.	.	4cc\	-ste	.	.	.	.	.	.	.	.	.
8F\J	.	.	8c/J	.	8a/J	.	.	.	.	.	.	.	.	.	.	.	.	.	.
*Xtremolo	*	*	*Xtremolo	*	*Xtremolo	*	*	*	*	*	*	*	*	*	*	*	*	*	*
8E\L	6 5	.	8c/L	.	8b-/L	.	.	.	16g\LL	e-	.	.	.	.	.	.	.	.	.
.	.	.	.	.	.	.	.	.	16cc\	.	.	.	.	.	.	.	.	.	.
8E\J	.	.	8c/J	.	8b-/J	.	.	.	16b-\	.	.	.	.	.	.	.	.	.	.
.	.	.	.	.	.	.	.	.	16g\JJ	.	.	.	.	.	.	.	.	.	.
!	!	!	!LO:LB:g=original	!	!	!	!	!	!	!	!	!	!	!	!	!	!	!	!
=12	=12	=12	=12	=12	=12	=12	=12	=12	=12	=12	=12	=12	=12	=12	=12	=12	=12	=12	=12
*tremolo	*	*	*	*	*	*	*	*	*	*	*	*	*	*	*	*	*	*	*
8F\L	5 3	.	(16f/LL	.	(16a/LL	.	2.ryy	2.ryy	16b-\LL	-lei-	2.ryy	2.ryy	2.ryy	2.ryy	2.ryy	.	.	.	.
.	.	.	16g/)	.	16b-/)	.	.	.	16a\	.	.	.	.	.	.	.	.	.	.
8F\	.	.	16a/|	.	16cc/|	.	.	.	16g\	.	.	.	.	.	.	.	.	.	.
.	.	.	16a/|JJ	.	16cc/|JJ	.	.	.	16f\JJ	.	.	.	.	.	.	.	.	.	.
8F\	.	.	(16f/LL	.	(16a/LL	.	.	.	4f\	-son	.	.	.	.	.	.	.	.	.
.	.	.	16g/)	.	16b-/)	.	.	.	.	.	.	.	.	.	.	.	.	.	.
8F\	.	.	16a/|	.	16cc/|	.	.	.	.	.	.	.	.	.	.	.	.	.	.
.	.	.	16a/|JJ	.	16cc/|JJ	.	.	.	.	.	.	.	.	.	.	.	.	.	.
8F\	.	.	(16f/LL	.	(16a/LL	.	.	.	8r	.	.	.	.	.	.	.	.	.	.
.	.	.	16g/)	.	16b-/)	.	.	.	.	.	.	.	.	.	.	.	.	.	.
8F\J	.	.	16a/|	.	16cc/|	.	.	.	16a\LL	e-	.	.	.	.	.	.	.	.	.
.	.	.	16a/|JJ	.	16cc/|JJ	.	.	.	16b-\JJ	.	.	.	.	.	.	.	.	.	.
=13	=13	=13	=13	=13	=13	=13	=13	=13	=13	=13	=13	=13	=13	=13	=13	=13	=13	=13	=13
8F\L	6 4	.	(16f/LL	.	(16b-/LL	.	2.ryy	2.ryy	16cc#X\LL	-lei-	2.ryy	2.ryy	2.ryy	2.ryy	2.ryy	.	.	.	.
.	.	.	16a/)	.	16cc/)	.	.	.	16dd\JJ	.	.	.	.	.	.	.	.	.	.
8F\	.	.	16b-/|	.	16dd/|	.	.	.	4dd\	-son	.	.	.	.	.	.	.	.	.
.	.	.	16b-/|JJ	.	16dd/|JJ	.	.	.	.	.	.	.	.	.	.	.	.	.	.
8F\	.	.	(16f/LL	.	(16b-/LL	.	.	.	.	.	.	.	.	.	.	.	.	.	.
.	.	.	16a/)	.	16cc/)	.	.	.	.	.	.	.	.	.	.	.	.	.	.
8F\	.	.	16b-/|	.	16dd/|	.	.	.	16ee\LL	e-	.	.	.	.	.	.	.	.	.
.	.	.	16b-/|JJ	.	16dd/|JJ	.	.	.	16ff\JJ	.	.	.	.	.	.	.	.	.	.
!	!	!	!	!	!	!	!	!	!LO:LB:g=original	!	!	!	!	!	!	!	!	!	!
8F\	.	.	(16f/LL	.	(16b-/LL	.	.	.	16gg\LL	.	.	.	.	.	.	.	.	.	.
.	.	.	16a/)	.	16cc/)	.	.	.	16aa\	-lei-	.	.	.	.	.	.	.	.	.
8F\J	.	.	16b-/|	.	16dd/|	.	.	.	16bb-\	.	.	.	.	.	.	.	.	.	.
.	.	.	16b-/|JJ	.	16dd/|JJ	.	.	.	16dd\JJ	.	.	.	.	.	.	.	.	.	.
=14	=14	=14	=14	=14	=14	=14	=14	=14	=14	=14	=14	=14	=14	=14	=14	=14	=14	=14	=14
8F\L	5 3	.	(16f/LL	.	(16a/LL	.	2.ryy	2.ryy	16bn\LL	.	2.ryy	2.ryy	2.ryy	2.ryy	2.ryy	.	.	.	.
.	.	.	16g/)	.	16b-/)	.	.	.	16cc\	.	.	.	.	.	.	.	.	.	.
8F\	.	.	16a/|	.	16cc/|	.	.	.	16dd\	.	.	.	.	.	.	.	.	.	.
.	.	.	16a/|JJ	.	16cc/|JJ	.	.	.	16cc\JJ	.	.	.	.	.	.	.	.	.	.
*	*	*	*rep	*	*	*	*	*	*	*	*	*	*	*	*	*	*	*	*
8F\	.	.	(16f/LL	.	(16a/LL	.	.	.	4cc\	-son	.	.	.	.	.	.	.	.	.
.	.	.	16g/)	.	16b-/)	.	.	.	.	.	.	.	.	.	.	.	.	.	.
8F\J	.	.	16a/|	.	16cc/|	.	.	.	.	.	.	.	.	.	.	.	.	.	.
.	.	.	16a/|JJ	.	16cc/|JJ	.	.	.	.	.	.	.	.	.	.	.	.	.	.
*Xtremolo	*	*	*Xrep	*	*	*	*	*	*	*	*	*	*	*	*	*	*	*	*
*	*	*	*rep	*	*	*	*	*	*	*	*	*	*	*	*	*	*	*	*
8A\L	6 5	.	(16f/LL	.	(16a/LL	.	.	.	16r	.	.	.	.	.	.	.	.	.	.
.	.	.	16g/)	.	16b-/)	.	.	.	16cc\LL	e-	.	.	.	.	.	.	.	.	.
8A\J	.	.	16a/|	.	16cc/|	.	.	.	16ff\	.	.	.	.	.	.	.	.	.	.
.	.	.	16a/|JJ	.	16cc/|JJ	.	.	.	16aa\JJ	.	.	.	.	.	.	.	.	.	.
*	*	*	*Xrep	*	*	*	*	*	*	*	*	*	*	*	*	*	*	*	*
=15	=15	=15	=15	=15	=15	=15	=15	=15	=15	=15	=15	=15	=15	=15	=15	=15	=15	=15	=15
*tremolo	*	*	*	*	*	*	*	*	*	*	*	*	*	*	*	*	*	*	*
8B-\L	6 3	.	(16g/LL	.	(16b-/LL	.	2.ryy	2.ryy	16aa\LL	-lei-	2.ryy	2.ryy	2.ryy	2.ryy	2.ryy	2.r	2.r	2.r	2.r
.	.	.	16a/)	.	16cc/)	.	.	.	16gg\	-.	.	.	.	.	.	.	.	.	.
8B-\	.	.	16b-/|	.	16dd/|	.	.	.	16gg\	.	.	.	.	.	.	.	.	.	.
.	.	.	16b-/|JJ	.	16dd/|JJ	.	.	.	16aa\JJ	.	.	.	.	.	.	.	.	.	.
*	*	*	*rep	*	*	*	*	*	*	*	*	*	*	*	*	*	*	*	*
8B-\	.	.	(16g/LL	.	(16b-/LL	.	.	.	16bb-\LL	.	.	.	.	.	.	.	.	.	.
.	.	.	16a/)	.	16cc/)	.	.	.	16gg\	.	.	.	.	.	.	.	.	.	.
8B-\J	.	.	16b-/|	.	16dd/|	.	.	.	16dd\	.	.	.	.	.	.	.	.	.	.
.	.	.	16b-/|JJ	.	16dd/|JJ	.	.	.	16ff\JJ	.	.	.	.	.	.	.	.	.	.
*Xtremolo	*	*	*Xrep	*	*	*	*	*	*	*	*	*	*	*	*	*	*	*	*
!LO:TX:t=P:problem=mixed beam	!	!	!	!	!	!	!	!	!	!	!	!	!	!	!	!	!	!	!
8c\L	7 5	.	(16e/LL	.	(16g/LL	.	.	.	8.ee\L	.	.	.	.	.	.	.	.	.	.
.	.	.	16f/)	.	16a/)	.	.	.	.	.	.	.	.	.	.	.	.	.	.
8C/J	.	.	16g/|	.	16b-/|	.	.	.	.	.	.	.	.	.	.	.	.	.	.
.	.	.	16g/|JJ	.	16b-/|JJ	.	.	.	16gg\Jk	.	.	.	.	.	.	.	.	.	.
=16	=16	=16	=16	=16	=16	=16	=16	=16	=16	=16	=16	=16	=16	=16	=16	=16	=16	=16	=16
!	!	!	!	!	!	!	!	!	!	!	!	!	!	!	!	!LO:TX:t=P:problem=mixed beam	!	!LO:TX:t=P:problem=mixed beam	!
4F\	.	.	4f/	.	4a 4f/	.	2.ryy	2.ryy	4ff\	-son.	2.ryy	2.ryy	2.ryy	2.ryy	2.ryy	16f/LL	16ff\LL	16f/LL	16ff\LL
.	.	.	.	.	.	.	.	.	.	.	.	.	.	.	.	16ff\	16aa\	16ff\	16aa\
.	.	.	.	.	.	.	.	.	.	.	.	.	.	.	.	16ff\	16aa\	16ff\	16aa\
.	.	.	.	.	.	.	.	.	.	.	.	.	.	.	.	16ee\JJ	16gg\JJ	16ee\JJ	16gg\JJ
4r	.	.	4r	.	4r	.	.	.	4r	.	.	.	.	.	.	16ee\LL	16gg\LL	16ee\LL	16gg\LL
.	.	.	.	.	.	.	.	.	.	.	.	.	.	.	.	16dd\	16bb-\	16dd\	16bb-\
.	.	.	.	.	.	.	.	.	.	.	.	.	.	.	.	16dd\	16bb-\	16dd\	16bb-\
.	.	.	.	.	.	.	.	.	.	.	.	.	.	.	.	16cc\JJ	16aa\JJ	16cc\JJ	16aa\JJ
!	!	!	!	!	!LO:TX:b:i:t=Volti Subito.	!	!	!	!	!	!	!	!	!	!	!LO:LB:g=original	!	!	!
4C/	.	.	4e 4G/	.	4b- 4g/	.	.	.	4r	.	.	.	.	.	.	16cc\LL	16aa\LL	16cc\LL	16aa\LL
.	.	.	.	.	.	.	.	.	.	.	.	.	.	.	.	16b-\	16gg\	16b-\	16gg\
.	.	.	.	.	.	.	.	.	.	.	.	.	.	.	.	16b-\	16gg\	16b-\	16gg\
.	.	.	.	.	.	.	.	.	.	.	.	.	.	.	.	16g\JJ	16ee\JJ	16g\JJ	16ee\JJ
!	!	!	!	!	!LO:PB:g=original	!	!	!	!	!	!	!	!	!	!	!	!LO:LB:g=original	!LO:LB:g=original	!LO:LB:g=original
=17	=17	=17	=17	=17	=17	=17	=17	=17	=17	=17	=17	=17	=17	=17	=17	=17	=17	=17	=17
!	!	!	!	!	!	!	!	!	!LO:TX:a:t=2.	!	!	!	!	!	!	!	!	!	!
4F\	.	.	4f 4A/	.	4a 4f/	.	2.ryy	2.ryy	1.r	.	2.ryy	2.ryy	2.ryy	2.ryy	2.ryy	16a\LL	16ff\LL	16a\LL	16ff\LL
.	.	.	.	.	.	.	.	.	.	.	.	.	.	.	.	16ff\	16aa\	16ff\	16aa\
.	.	.	.	.	.	.	.	.	.	.	.	.	.	.	.	16ff\	16aa\	16ff\	16aa\
.	.	.	.	.	.	.	.	.	.	.	.	.	.	.	.	16ee\JJ	16gg\JJ	16ee\JJ	16gg\JJ
4r	.	.	4r	.	4r	.	.	.	.	.	.	.	.	.	.	16ee\LL	16gg\LL	16ee\LL	16gg\LL
.	.	.	.	.	.	.	.	.	.	.	.	.	.	.	.	16dd\	16bb-\	16dd\	16bb-\
.	.	.	.	.	.	.	.	.	.	.	.	.	.	.	.	16dd\	16bb-\	16dd\	16bb-\
.	.	.	.	.	.	.	.	.	.	.	.	.	.	.	.	16cc\JJ	16aa\JJ	16cc\JJ	16aa\JJ
4C/	.	.	4e 4G/	.	4b- 4g/	.	.	.	.	.	.	.	.	.	.	16cc\LL	16aa\LL	16cc\LL	16aa\LL
.	.	.	.	.	.	.	.	.	.	.	.	.	.	.	.	16b-\	16gg\	16b-\	16gg\
.	.	.	.	.	.	.	.	.	.	.	.	.	.	.	.	16b-\	16gg\	16b-\	16gg\
.	.	.	.	.	.	.	.	.	.	.	.	.	.	.	.	16g\JJ	16ee\JJ	16g\JJ	16ee\JJ
=18	=18	=18	=18	=18	=18	=18	=18	=18	=18	=18	=18	=18	=18	=18	=18	=18	=18	=18	=18
4F\	.	.	4f 4A/	.	4a 4f/	.	2.ryy	2.ryy	.	.	2.ryy	2.ryy	2.ryy	2.ryy	2.ryy	16a\LL	16ff\LL	16a\LL	16ff\LL
.	.	.	.	.	.	.	.	.	.	.	.	.	.	.	.	16g\	16ee\	16g\	16ee\
.	.	.	.	.	.	.	.	.	.	.	.	.	.	.	.	16a\	16ff\	16a\	16ff\
.	.	.	.	.	.	.	.	.	.	.	.	.	.	.	.	16b-\JJ	16dd\JJ	16b-\JJ	16dd\JJ
8FF/L	.	.	8fL 8A/	.	8aL 8f/	.	.	.	.	.	.	.	.	.	.	8a\L	8cc\L	8a/L	8cc\L
8FF/J	.	.	8fJ 8A/	.	8aJ 8f/	.	.	.	.	.	.	.	.	.	.	8a\J	8cc\J	8a/J	8cc\J
!	!	!	!	!	!	!	!	!	!LO:TX:b:i:t=Volti subito	!	!	!	!	!	!	!	!	!	!
4FF/	.	.	4f 4A/	.	4a 4f/	.	.	.	.	.	.	.	.	.	.	4f/	4a\	4f/	4a/
!LO:LB:g=original	!	!	!LO:LB:g=original	!	!	!	!	!	!LO:PB:g=original	!	!	!	!	!	!	!	!	!	!
=19	=19	=19	=19	=19	=19	=19	=19	=19	=19	=19	=19	=19	=19	=19	=19	=19	=19	=19	=19
*tremolo	*	*	*	*	*	*	*	*	*	*	*	*	*	*	*	*	*	*	*
!	!	!	!	!	!	!	!	!	!	!	!	!	!	!	!	!LO:TX:a:t=3.	!LO:TX:a:t=3.	!LO:TX:a:t=3.	!LO:TX:a:t=3.
8F\L	5 3	.	16r	.	16r	.	2.ryy	2.ryy	4cc\	Chri-	2.ryy	2.ryy	2.ryy	2.ryy	2.ryy	1.r	1.r	1.r	1.r
.	.	.	16a/LL	.	16cc\LL	.	.	.	.	.	.	.	.	.	.	.	.	.	.
8F\	.	.	16a/	.	16cc\	.	.	.	.	.	.	.	.	.	.	.	.	.	.
.	.	.	16a/JJ	.	16cc\JJ	.	.	.	.	.	.	.	.	.	.	.	.	.	.
8F\	.	.	16r	.	16r	.	.	.	16cc\LL	-ste	.	.	.	.	.	.	.	.	.
.	.	.	16a/LL	.	16cc\LL	.	.	.	16ff\	.	.	.	.	.	.	.	.	.	.
8F\	.	.	16a/	.	16cc\	.	.	.	16gg\	.	.	.	.	.	.	.	.	.	.
.	.	.	16a/JJ	.	16cc\JJ	.	.	.	16aa\JJ	.	.	.	.	.	.	.	.	.	.
8F\	.	.	16r	.	16r	.	.	.	8.gg\L	e-	.	.	.	.	.	.	.	.	.
.	.	.	16a/LL	.	16cc\LL	.	.	.	.	.	.	.	.	.	.	.	.	.	.
8F\J	.	.	16a/	.	16cc\	.	.	.	.	.	.	.	.	.	.	.	.	.	.
.	.	.	16a/JJ	.	16cc\JJ	.	.	.	16ff\Jk	.	.	.	.	.	.	.	.	.	.
=20	=20	=20	=20	=20	=20	=20	=20	=20	=20	=20	=20	=20	=20	=20	=20	=20	=20	=20	=20
8E\L	6 3	.	16r	.	16r	.	2.ryy	2.ryy	16ff#X\LL	-lei-	2.ryy	2.ryy	2.ryy	2.ryy	2.ryy	.	.	.	.
.	.	.	16g/LL	.	16cc\LL	.	.	.	16gg\	.	.	.	.	.	.	.	.	.	.
8E\	.	.	16g/	.	16cc\	.	.	.	16aa\	.	.	.	.	.	.	.	.	.	.
.	.	.	16g/JJ	.	16cc\JJ	.	.	.	16gg\JJ	.	.	.	.	.	.	.	.	.	.
8E\	.	.	16r	.	16r	.	.	.	4gg\	-son	.	.	.	.	.	.	.	.	.
.	.	.	16g/LL	.	16cc\LL	.	.	.	.	.	.	.	.	.	.	.	.	.	.
8E\	.	.	16g/	.	16cc\	.	.	.	.	.	.	.	.	.	.	.	.	.	.
.	.	.	16g/JJ	.	16cc\JJ	.	.	.	.	.	.	.	.	.	.	.	.	.	.
8E\	.	.	16r	.	16r	.	.	.	16g\LL	e-	.	.	.	.	.	.	.	.	.
.	.	.	16g/LL	.	16cc\LL	.	.	.	16cc\	.	.	.	.	.	.	.	.	.	.
8E\J	.	.	16g/	.	16cc\	.	.	.	16ee\	.	.	.	.	.	.	.	.	.	.
.	.	.	16g/JJ	.	16cc\JJ	.	.	.	16gg\JJ	.	.	.	.	.	.	.	.	.	.
=21	=21	=21	=21	=21	=21	=21	=21	=21	=21	=21	=21	=21	=21	=21	=21	=21	=21	=21	=21
8F\L	6 3	.	16r	.	16r	.	2.ryy	2.ryy	16gg\LL	-lei-	2.ryy	2.ryy	2.ryy	2.ryy	2.ryy	2.r	2.r	2.r	2.r
.	.	.	16a/LL	.	16dd\LL	.	.	.	16ff\	.	.	.	.	.	.	.	.	.	.
8F\	.	.	16a/	.	16dd\	.	.	.	16ee\	.	.	.	.	.	.	.	.	.	.
.	.	.	16a/JJ	.	16dd\JJ	.	.	.	16dd\JJ	.	.	.	.	.	.	.	.	.	.
8F\	.	.	16r	.	16r	.	.	.	16cc#X\LL	.	.	.	.	.	.	.	.	.	.
.	.	.	16a/LL	.	16dd\LL	.	.	.	16dd\	.	.	.	.	.	.	.	.	.	.
8F\J	.	.	16a/	.	16dd\	.	.	.	16ff\	.	.	.	.	.	.	.	.	.	.
.	.	.	16a/JJ	.	16dd\JJ	.	.	.	16ee\JJ	.	.	.	.	.	.	.	.	.	.
*Xtremolo	*	*	*	*	*	*	*	*	*	*	*	*	*	*	*	*	*	*	*
8F\L	.	.	16r	.	16r	.	.	.	16ee\LL	.	.	.	.	.	.	.	.	.	.
.	.	.	16a/LL	.	16cc\LL	.	.	.	16dd\	.	.	.	.	.	.	.	.	.	.
8F#X\J	5 3	.	16a/	.	16cc\	.	.	.	16dd\	.	.	.	.	.	.	.	.	.	.
.	.	.	16a/JJ	.	16cc\JJ	.	.	.	16cc#\JJ	.	.	.	.	.	.	.	.	.	.
!	!	!	!	!	!LO:LB:g=original	!	!	!	!	!	!	!	!	!	!	!	!	!	!
=22	=22	=22	=22	=22	=22	=22	=22	=22	=22	=22	=22	=22	=22	=22	=22	=22	=22	=22	=22
4G\	6 4	.	4e/	.	4cc\	.	2.ryy	2.ryy	(4cc\	.	2.ryy	2.ryy	2.ryy	2.ryy	2.ryy	4r	4r	4r	4r
4GG/	5 n	.	4d/	.	4bn\	.	.	.	4bn\)	-son.	.	.	.	.	.	8r	8r	8r	8r
.	.	.	.	.	.	.	.	.	.	.	.	.	.	.	.	8bX\L	8dd\L	8bn\L	8dd\L
4r	.	.	4r	.	4r	.	.	.	4r	.	.	.	.	.	.	8cc\	8ee\	8cc\	8ee\
.	.	.	.	.	.	.	.	.	.	.	.	.	.	.	.	8dd\J	8ff\J	8dd\J	8ff\J
=23	=23	=23	=23	=23	=23	=23	=23	=23	=23	=23	=23	=23	=23	=23	=23	=23	=23	=23	=23
8C/L	x 3	.	4e 4G/	.	8.ee\L	.	2.ryy	2.ryy	8.ee\L	Chri-	2.ryy	2.ryy	2.ryy	2.ryy	2.ryy	8ee\L	8.gg\L	8ee\L	8.gg\L
8GG/	.	.	.	.	.	.	.	.	.	.	.	.	.	.	.	8cc\J	.	8cc\J	.
.	.	.	.	.	16gg\Jk	.	.	.	16gg\Jk	.	.	.	.	.	.	.	16ee\Jk	.	16ee\Jk
8D/	5_ 3_	.	4f 4G/	.	16ff\LL	.	.	.	4ff\	-ste,	.	.	.	.	.	4dd\	4ff\	4dd\	4ff\
.	.	.	.	.	16bbn\	.	.	.	.	.	.	.	.	.	.	.	.	.	.
8GG/	.	.	.	.	16ddd\	.	.	.	.	.	.	.	.	.	.	.	.	.	.
.	.	.	.	.	16ccc\JJ	.	.	.	.	.	.	.	.	.	.	.	.	.	.
8D/	.	.	4r	.	16bb\LL	.	.	.	8r	.	.	.	.	.	.	4r	4r	4r	4r
.	.	.	.	.	16aa\	.	.	.	.	.	.	.	.	.	.	.	.	.	.
8GG/J	.	.	.	.	16gg\	.	.	.	8dd\	e-	.	.	.	.	.	.	.	.	.
.	.	.	.	.	16ff\JJ	.	.	.	.	.	.	.	.	.	.	.	.	.	.
!	!	!	!	!	!	!	!	!	!LO:LB:g=original	!	!	!	!	!	!	!	!	!	!
=24	=24	=24	=24	=24	=24	=24	=24	=24	=24	=24	=24	=24	=24	=24	=24	=24	=24	=24	=24
8C/L	x 3	.	4e 4G/	.	4ee\	.	2.ryy	2.ryy	8.cc\L	-lei-	2.ryy	2.ryy	2.ryy	2.ryy	2.ryy	8.cc\L	8.ee\L	8.cc\L	8.ee\L
8GG/	.	.	.	.	.	.	.	.	.	.	.	.	.	.	.	.	.	.	.
.	.	.	.	.	.	.	.	.	16dd\Jk	.	.	.	.	.	.	16dd\Jk	16ff\Jk	16dd\Jk	16ff\Jk
8BBn/	6_ 3	.	4d 4G/	.	16dd\LL	.	.	.	4bn\	-son,	.	.	.	.	.	4bX\	4dd\	4b-\	4dd\
.	.	.	.	.	16gg\	.	.	.	.	.	.	.	.	.	.	.	.	.	.
8GG/	.	.	.	.	16ff#X\	.	.	.	.	.	.	.	.	.	.	.	.	.	.
.	.	.	.	.	16gg\JJ	.	.	.	.	.	.	.	.	.	.	.	.	.	.
8BB/	_ 3	.	4r	.	16aa\LL	.	.	.	4r	.	.	.	.	.	.	4r	4r	4r	4r
.	.	.	.	.	16gg\	.	.	.	.	.	.	.	.	.	.	.	.	.	.
8GG/J	.	.	.	.	16ff#X\	.	.	.	.	.	.	.	.	.	.	.	.	.	.
.	.	.	.	.	16gg\JJ	.	.	.	.	.	.	.	.	.	.	.	.	.	.
!	!	!	!	!	!	!	!	!	!	!	!	!	!	!	!	!LO:LB:g=original	!LO:LB:g=original	!	!
=25	=25	=25	=25	=25	=25	=25	=25	=25	=25	=25	=25	=25	=25	=25	=25	=25	=25	=25	=25
8C/L	x 3	.	4e 4G/	.	8.ee\L	.	2.ryy	2.ryy	8.ee\L	Chri-	2.ryy	2.ryy	2.ryy	2.ryy	2.ryy	8.ee\L	8.gg\L	8.ee\L	8.gg\L
8GG/	.	.	.	.	.	.	.	.	.	.	.	.	.	.	.	.	.	.	.
.	.	.	.	.	16gg\Jk	.	.	.	16gg\Jk	.	.	.	.	.	.	16cc\Jk	16ee\Jk	16cc\Jk	16ee\Jk
8D/	6\_ 3	.	4f 4G/	.	16ff\LL	.	.	.	4ff\	-ſte	.	.	.	.	.	4dd\	4ff\	4dd\	4ff\
.	.	.	.	.	16bbn\	.	.	.	.	.	.	.	.	.	.	.	.	.	.
8GG/	.	.	.	.	16ddd\	.	.	.	.	.	.	.	.	.	.	.	.	.	.
.	.	.	.	.	16ccc\JJ	.	.	.	.	.	.	.	.	.	.	.	.	.	.
!	!	!	!LO:TX:b:i:t=Volti ſubito.	!	!	!	!	!	!	!	!	!	!	!	!	!	!	!	!
8D/	_ 3	.	4r	.	16bb\LL	.	.	.	8r	.	.	.	.	.	.	4r	4r	4r	4r
.	.	.	.	.	16aa\	.	.	.	.	.	.	.	.	.	.	.	.	.	.
8GG/J	.	.	.	.	16gg\	.	.	.	8dd\	e-	.	.	.	.	.	.	.	.	.
.	X X	.	.	.	16ff\JJ	.	.	.	.	.	.	.	.	.	.	.	.	.	.
!	!	!	!LO:LB:g=original	!	!	!	!	!	!	!	!	!	!	!	!	!	!	!LO:LB:g=original	!LO:LB:g=original
=26	=26	=26	=26	=26	=26	=26	=26	=26	=26	=26	=26	=26	=26	=26	=26	=26	=26	=26	=26
8C/L	.	.	4e 4G/	.	4ee\	.	2.ryy	2.ryy	8.cc\L	-lei-	2.ryy	2.ryy	2.ryy	2.ryy	2.ryy	8.cc\L	8.ee\L	8.cc\L	8.ee\L
8GG/	.	.	.	.	.	.	.	.	.	.	.	.	.	.	.	.	.	.	.
.	.	.	.	.	.	.	.	.	16dd\Jk	.	.	.	.	.	.	16dd\Jk	16ff\Jk	16dd\Jk	16ff\Jk
!LO:ACC:color=grey	!	!	!	!	!	!	!	!	!	!	!	!	!	!	!	!	!	!	!
8BBn/	6_	.	4d 4G/	.	16dd\LL	.	.	.	4bn\	-son.	.	.	.	.	.	4bX\	4dd\	4b-\	4dd\
.	.	.	.	.	16gg\	.	.	.	.	.	.	.	.	.	.	.	.	.	.
8GG/	.	.	.	.	16ff#X\	.	.	.	.	.	.	.	.	.	.	.	.	.	.
.	.	.	.	.	16gg\JJ	.	.	.	.	.	.	.	.	.	.	.	.	.	.
8BB/	.	.	4r	.	16aa\LL	.	.	.	4r	.	.	.	.	.	.	4r	4r	4r	4r
.	.	.	.	.	16gg\	.	.	.	.	.	.	.	.	.	.	.	.	.	.
8GG/J	.	.	.	.	16ff#X\	.	.	.	.	.	.	.	.	.	.	.	.	.	.
.	X	.	.	.	16gg\JJ	.	.	.	.	.	.	.	.	.	.	.	.	.	.
=27	=27	=27	=27	=27	=27	=27	=27	=27	=27	=27	=27	=27	=27	=27	=27	=27	=27	=27	=27
!	!	!	!	!	!	!	!	!	!	!	!	!	!	!	!	!LO:TX:a:t=6	!LO:TX:a:t=6.	!LO:TX:a:t=6.	!LO:TX:a:t=6.
8C\L	.	.	8e/L	.	8ee\L	.	2.ryy	2.ryy	16cc\LL	e-	2.ryy	2.ryy	2.ryy	2.ryy	2.ryy	0.r	0.r	0.r	0.r
.	.	.	.	.	.	.	.	.	16bn\	.	.	.	.	.	.	.	.	.	.
8E\J	6 3	.	8g/J	.	8cc\J	.	.	.	16cc\	.	.	.	.	.	.	.	.	.	.
.	.	.	.	.	.	.	.	.	16dd\JJ	.	.	.	.	.	.	.	.	.	.
*	*	*	*	*	*2\right	*	*	*	*	*	*	*	*	*	*	*	*	*	*
*tremolo	*	*	*tremolo	*	*tremolo	*	*	*	*	*	*	*	*	*	*	*	*	*	*
8E\L	.	.	8g/L	.	8cc\L	.	.	.	16ee\LL	.	.	.	.	.	.	.	.	.	.
.	.	.	.	.	.	.	.	.	16dd\	.	.	.	.	.	.	.	.	.	.
8E\	.	.	8g/	.	8cc\	.	.	.	16ee\	.	.	.	.	.	.	.	.	.	.
.	.	.	.	.	.	.	.	.	16ff\JJ	.	.	.	.	.	.	.	.	.	.
8E\	.	.	8g/	.	8cc\	.	.	.	8.gg\L	.	.	.	.	.	.	.	.	.	.
8E\J	.	.	8g/J	.	8cc\J	.	.	.	.	.	.	.	.	.	.	.	.	.	.
.	.	.	.	.	.	.	.	.	16ee\Jk	.	.	.	.	.	.	.	.	.	.
!	!	!	!	!	!LO:LB:g=original	!	!	!	!	!	!	!	!	!	!	!	!	!	!
=28	=28	=28	=28	=28	=28	=28	=28	=28	=28	=28	=28	=28	=28	=28	=28	=28	=28	=28	=28
8F\L	6 5	.	8a/L	.	8dd\L	.	2.ryy	2.ryy	16dd\LL	.	2.ryy	2.ryy	2.ryy	2.ryy	2.ryy	.	.	.	.
.	.	.	.	.	.	.	.	.	16cc#X\	.	.	.	.	.	.	.	.	.	.
8F\	.	.	8a/	.	8dd\	.	.	.	16dd\	.	.	.	.	.	.	.	.	.	.
.	.	.	.	.	.	.	.	.	16ee\JJ	.	.	.	.	.	.	.	.	.	.
8F\	.	.	8a/	.	8dd\	.	.	.	16ff\LL	.	.	.	.	.	.	.	.	.	.
.	.	.	.	.	.	.	.	.	16ee\	.	.	.	.	.	.	.	.	.	.
8F\	.	.	8a/	.	8dd\	.	.	.	16ff\	.	.	.	.	.	.	.	.	.	.
.	.	.	.	.	.	.	.	.	16gg\JJ	.	.	.	.	.	.	.	.	.	.
8F\	.	.	8a/	.	8dd\	.	.	.	8.aa\L	.	.	.	.	.	.	.	.	.	.
!LO:TX:b:i:t=Volti subito	!	!	!	!	!	!	!	!	!	!	!	!	!	!	!	!	!	!	!
8F\J	.	.	8a/J	.	8dd\J	.	.	.	.	.	.	.	.	.	.	.	.	.	.
.	.	.	.	.	.	.	.	.	16ff\Jk	.	.	.	.	.	.	.	.	.	.
!LO:PB:g=original	!	!	!	!	!	!	!	!	!LO:LB:g=original	!	!	!	!	!	!	!	!	!	!
=29	=29	=29	=29	=29	=29	=29	=29	=29	=29	=29	=29	=29	=29	=29	=29	=29	=29	=29	=29
*	*	*	*2\right	*	*	*	*	*	*	*	*	*	*	*	*	*	*	*	*
8G\L	6 4	.	8cc\L	.	8dd\L	.	2.ryy	2.ryy	16ee\LL	.	2.ryy	2.ryy	2.ryy	2.ryy	2.ryy	.	.	.	.
.	.	.	.	.	.	.	.	.	16gg\	.	.	.	.	.	.	.	.	.	.
8G\	.	.	8cc\	.	8dd\	.	.	.	16ff\	.	.	.	.	.	.	.	.	.	.
.	.	.	.	.	.	.	.	.	16dd\JJ	.	.	.	.	.	.	.	.	.	.
8G\	.	.	8cc\	.	8dd\	.	.	.	(8.cc\L	-lei-	.	.	.	.	.	.	.	.	.
8G\J	.	.	8cc\J	.	8dd\J	.	.	.	.	.	.	.	.	.	.	.	.	.	.
.	.	.	.	.	.	.	.	.	16dd\Jk	.	.	.	.	.	.	.	.	.	.
*Xtremolo	*	*	*Xtremolo	*	*Xtremolo	*	*	*	*	*	*	*	*	*	*	*	*	*	*
8GG/L	7 5	.	8b-\L	.	8dd\L	.	.	.	4ddT\)	-son	.	.	.	.	.	.	.	.	.
8GG/J	.	.	8b-\J	.	8dd\J	.	.	.	.	.	.	.	.	.	.	.	.	.	.
=30	=30	=30	=30	=30	=30	=30	=30	=30	=30	=30	=30	=30	=30	=30	=30	=30	=30	=30	=30
*	*	*	*	*	*tremolo	*	*	*	*	*	*	*	*	*	*	*	*	*	*
8C\L	.	.	8cc\L	.	8cc\L	.	2.ryy	2.ryy	16cc\LL	e-	2.ryy	2.ryy	2.ryy	2.ryy	2.ryy	.	.	.	.
.	.	.	.	.	.	.	.	.	16bn\	.	.	.	.	.	.	.	.	.	.
8E\J	6 3	.	8g\J	.	8cc\	.	.	.	16cc\	.	.	.	.	.	.	.	.	.	.
.	.	.	.	.	.	.	.	.	16dd\JJ	.	.	.	.	.	.	.	.	.	.
*tremolo	*	*	*tremolo	*	*	*	*	*	*	*	*	*	*	*	*	*	*	*	*
8E\L	.	.	8g/L	.	8cc\	.	.	.	16ee\LL	.	.	.	.	.	.	.	.	.	.
.	.	.	.	.	.	.	.	.	16dd\	.	.	.	.	.	.	.	.	.	.
8E\	.	.	8g/	.	8cc\	.	.	.	16ee\	.	.	.	.	.	.	.	.	.	.
.	.	.	.	.	.	.	.	.	16ff\JJ	.	.	.	.	.	.	.	.	.	.
8E\	.	.	8g/	.	8cc\	.	.	.	8.gg\L	.	.	.	.	.	.	.	.	.	.
8E\J	.	.	8g/J	.	8cc\J	.	.	.	.	.	.	.	.	.	.	.	.	.	.
.	.	.	.	.	.	.	.	.	16ee\Jk	.	.	.	.	.	.	.	.	.	.
=31	=31	=31	=31	=31	=31	=31	=31	=31	=31	=31	=31	=31	=31	=31	=31	=31	=31	=31	=31
8F\L	6 3	.	8a/L	.	8dd\L	.	2.ryy	2.ryy	16dd\LL	.	2.ryy	2.ryy	2.ryy	2.ryy	2.ryy	1.r	1.r	1.r	1.r
.	.	.	.	.	.	.	.	.	16cc#X\	.	.	.	.	.	.	.	.	.	.
8F\	.	.	8a/	.	8dd\	.	.	.	16dd\	.	.	.	.	.	.	.	.	.	.
.	.	.	.	.	.	.	.	.	16ee\JJ	.	.	.	.	.	.	.	.	.	.
8F\	.	.	8a/	.	8dd\	.	.	.	16ff\LL	.	.	.	.	.	.	.	.	.	.
.	.	.	.	.	.	.	.	.	16ee\	.	.	.	.	.	.	.	.	.	.
8F\	.	.	8a/	.	8dd\	.	.	.	16ff\	.	.	.	.	.	.	.	.	.	.
.	.	.	.	.	.	.	.	.	16gg\JJ	.	.	.	.	.	.	.	.	.	.
8F\	.	.	8a/	.	8dd\	.	.	.	8.aa\L	.	.	.	.	.	.	.	.	.	.
8F\J	.	.	8a/J	.	8dd\J	.	.	.	.	.	.	.	.	.	.	.	.	.	.
.	.	.	.	.	.	.	.	.	16ff\Jk	.	.	.	.	.	.	.	.	.	.
=32	=32	=32	=32	=32	=32	=32	=32	=32	=32	=32	=32	=32	=32	=32	=32	=32	=32	=32	=32
8G\L	6 4	.	8cc\L	.	8ee\L	.	2.ryy	2.ryy	16ee\LL	.	2.ryy	2.ryy	2.ryy	2.ryy	2.ryy	.	.	.	.
.	.	.	.	.	.	.	.	.	16ff\	.	.	.	.	.	.	.	.	.	.
8G\	.	.	8cc\	.	8ee\	.	.	.	16gg\	.	.	.	.	.	.	.	.	.	.
.	.	.	.	.	.	.	.	.	16aa\JJ	.	.	.	.	.	.	.	.	.	.
8G\	.	.	8cc\	.	8ee\	.	.	.	8.gg\L	.	.	.	.	.	.	.	.	.	.
8G\J	.	.	8cc\J	.	8ee\J	.	.	.	.	.	.	.	.	.	.	.	.	.	.
.	.	.	.	.	.	.	.	.	16ee\Jk	.	.	.	.	.	.	.	.	.	.
*Xtremolo	*	*	*Xtremolo	*	*Xtremolo	*	*	*	*	*	*	*	*	*	*	*	*	*	*
8GG/L	7 5 3	.	8b-\L	.	8dd\L	.	.	.	16ff\LL	.	.	.	.	.	.	.	.	.	.
.	.	.	.	.	.	.	.	.	16dd\	.	.	.	.	.	.	.	.	.	.
8GG/J	.	.	8b-\J	.	8dd\J	.	.	.	16cc\	-lei-	.	.	.	.	.	.	.	.	.
.	.	.	.	.	.	.	.	.	16bn\JJ	.	.	.	.	.	.	.	.	.	.
=33	=33	=33	=33	=33	=33	=33	=33	=33	=33	=33	=33	=33	=33	=33	=33	=33	=33	=33	=33
4C/	.	.	8cc\L	.	8cc\L	.	2.ryy	2.ryy	4cc\	-son.	2.ryy	2.ryy	2.ryy	2.ryy	2.ryy	8cc\L	8cc\L	8cc\L	8cc\L
.	.	.	8cc\	.	8cc\	.	.	.	.	.	.	.	.	.	.	8cc\	8ccc\	8cc\	8ccc\
4CC/	.	.	8bn\	.	8dd\	.	.	.	4r	.	.	.	.	.	.	8dd\	8bbX\	8dd\	8bbn\
.	.	.	8b-X\	.	8ee\	.	.	.	.	.	.	.	.	.	.	8ee\	8bb-\	8ee\	8bb-X\
4r	.	.	8a\	.	8ff\	.	.	.	4r	.	.	.	.	.	.	8ff\	8aa\	8ff\	8aa\
.	.	.	8g\J	.	8b-X\J	.	.	.	.	.	.	.	.	.	.	8b-X\J	8ee\J	8b-\J	8ee\J
!	!	!	!	!	!	!	!	!	!LO:LB:g=original	!	!	!	!	!	!	!	!	!	!
=34	=34	=34	=34	=34	=34	=34	=34	=34	=34	=34	=34	=34	=34	=34	=34	=34	=34	=34	=34
*tremolo	*	*	*	*	*tremolo	*	*	*	*	*	*	*	*	*	*	*	*	*	*
8F\L	5 3	.	8f/L	.	8a/L	.	2.ryy	2.ryy	16cc\LL	Chri-	2.ryy	2.ryy	2.ryy	2.ryy	2.ryy	4a\	4ff\	4a/	4ff\
.	.	.	.	.	.	.	.	.	16aa\	.	.	.	.	.	.	.	.	.	.
8F\	.	.	8c/J	.	8a/	.	.	.	16ff\	.	.	.	.	.	.	.	.	.	.
.	.	.	.	.	.	.	.	.	16dd\JJ	.	.	.	.	.	.	.	.	.	.
*	*	*	*tremolo	*	*	*	*	*	*	*	*	*	*	*	*	*	*	*	*
8F\	.	.	8c/L	.	8a/	.	.	.	4cc\	-ſte	.	.	.	.	.	4r	4r	4r	4r
8F\J	.	.	8c/	.	8a/J	.	.	.	.	.	.	.	.	.	.	.	.	.	.
*Xtremolo	*	*	*	*	*Xtremolo	*	*	*	*	*	*	*	*	*	*	*	*	*	*
8E\L	6 5	.	8c/	.	8b-X/L	.	.	.	16g\LL	e-	.	.	.	.	.	4r	4r	4r	4r
.	.	.	.	.	.	.	.	.	16cc\	.	.	.	.	.	.	.	.	.	.
8E\J	.	.	8c/J	.	8b-/J	.	.	.	16b-\	.	.	.	.	.	.	.	.	.	.
.	.	.	.	.	.	.	.	.	16g\JJ	.	.	.	.	.	.	.	.	.	.
*	*	*	*Xtremolo	*	*	*	*	*	*	*	*	*	*	*	*	*	*	*	*
=35	=35	=35	=35	=35	=35	=35	=35	=35	=35	=35	=35	=35	=35	=35	=35	=35	=35	=35	=35
*tremolo	*	*	*	*	*	*	*	*	*	*	*	*	*	*	*	*	*	*	*
!	!	!	!	!	!	!	!	!	!	!	!	!	!	!	!	!LO:TX:a:t=4.	!LO:TX:a:t=4	!LO:TX:a:t=4.	!LO:TX:a:t=4
8F\L	5 3	.	(16f/LL	.	(16a/LL	.	2.ryy	2.ryy	16b-\LL	-lei-	2.ryy	2.ryy	2.ryy	2.ryy	2.ryy	0.r	0.r	0.r	0.r
.	.	.	16g/)	.	16b-/)	.	.	.	16a\	.	.	.	.	.	.	.	.	.	.
8F\	.	.	16a/|	.	16cc/|	.	.	.	16g\	.	.	.	.	.	.	.	.	.	.
.	.	.	16a/|JJ	.	16cc/|JJ	.	.	.	16f\JJ	.	.	.	.	.	.	.	.	.	.
*	*	*	*rep	*	*	*	*	*	*	*	*	*	*	*	*	*	*	*	*
8F\	.	.	(16f/LL	.	(16a/LL	.	.	.	4f\	-son	.	.	.	.	.	.	.	.	.
.	.	.	16g/)	.	16b-/)	.	.	.	.	.	.	.	.	.	.	.	.	.	.
8F\	.	.	16a/|	.	16cc/|	.	.	.	.	.	.	.	.	.	.	.	.	.	.
.	.	.	16a/|JJ	.	16cc/|JJ	.	.	.	.	.	.	.	.	.	.	.	.	.	.
*	*	*	*Xrep	*	*	*	*	*	*	*	*	*	*	*	*	*	*	*	*
*	*	*	*rep	*	*	*	*	*	*	*	*	*	*	*	*	*	*	*	*
8F\	.	.	(16f/LL	.	(16a/LL	.	.	.	8r	.	.	.	.	.	.	.	.	.	.
.	.	.	16g/)	.	16b-/)	.	.	.	.	.	.	.	.	.	.	.	.	.	.
8F\J	.	.	16a/|	.	16cc/|	.	.	.	16a\LL	e-	.	.	.	.	.	.	.	.	.
.	.	.	16a/|JJ	.	16cc/|JJ	.	.	.	16cc\JJ	.	.	.	.	.	.	.	.	.	.
*	*	*	*Xrep	*	*	*	*	*	*	*	*	*	*	*	*	*	*	*	*
!	!	!	!LO:LB:g=original	!	!	!	!	!	!	!	!	!	!	!	!	!	!	!	!
=36	=36	=36	=36	=36	=36	=36	=36	=36	=36	=36	=36	=36	=36	=36	=36	=36	=36	=36	=36
8F\L	6 4	.	(16f/LL	.	(16b-/LL	.	2.ryy	2.ryy	16cc#X\LL	-lei-	2.ryy	2.ryy	2.ryy	2.ryy	2.ryy	.	.	.	.
.	.	.	16a/)	.	16cc/)	.	.	.	16dd\JJ	.	.	.	.	.	.	.	.	.	.
8F\	.	.	16b-/|	.	16dd/|	.	.	.	(4dd\	.	.	.	.	.	.	.	.	.	.
.	.	.	16b-/|JJ	.	16dd/|JJ	.	.	.	.	.	.	.	.	.	.	.	.	.	.
*	*	*	*rep	*	*rep	*	*	*	*	*	*	*	*	*	*	*	*	*	*
8F\	.	.	(16f/LL	.	(16b-/LL	.	.	.	.	.	.	.	.	.	.	.	.	.	.
.	.	.	16a/)	.	16cc/)	.	.	.	.	.	.	.	.	.	.	.	.	.	.
8F\	.	.	16b-/|	.	16dd/|	.	.	.	16ee\LL	.	.	.	.	.	.	.	.	.	.
.	.	.	16b-/|JJ	.	16dd/|JJ	.	.	.	16ff\JJ)	.	.	.	.	.	.	.	.	.	.
*	*	*	*Xrep	*	*Xrep	*	*	*	*	*	*	*	*	*	*	*	*	*	*
*	*	*	*rep	*	*rep	*	*	*	*	*	*	*	*	*	*	*	*	*	*
8F\	.	.	(16f/LL	.	(16b-/LL	.	.	.	16gg\LL	.	.	.	.	.	.	.	.	.	.
.	.	.	16a/)	.	16cc/)	.	.	.	16aa\	.	.	.	.	.	.	.	.	.	.
8F\J	.	.	16b-/|	.	16dd/|	.	.	.	16.bb-\	.	.	.	.	.	.	.	.	.	.
.	.	.	16b-/|JJ	.	16dd/|JJ	.	.	.	.	.	.	.	.	.	.	.	.	.	.
.	.	.	.	.	.	.	.	.	32dd\JJk	.	.	.	.	.	.	.	.	.	.
*	*	*	*Xrep	*	*Xrep	*	*	*	*	*	*	*	*	*	*	*	*	*	*
!	!	!	!	!	!LO:LB:g=original	!	!	!	!	!	!	!	!	!	!	!	!	!	!
=37	=37	=37	=37	=37	=37	=37	=37	=37	=37	=37	=37	=37	=37	=37	=37	=37	=37	=37	=37
8G\L	5 3	.	16f/LL	.	(16a/LL	.	2.ryy	2.ryy	16bn\LL	.	2.ryy	2.ryy	2.ryy	2.ryy	2.ryy	.	.	.	.
.	.	.	16g/	.	16b-/)	.	.	.	16cc\	.	.	.	.	.	.	.	.	.	.
8G\	.	.	16a/	.	16cc/|	.	.	.	16dd\	.	.	.	.	.	.	.	.	.	.
.	.	.	16a/JJ	.	16cc/|JJ	.	.	.	16cc\JJ	.	.	.	.	.	.	.	.	.	.
*	*	*	*rep	*	*	*	*	*	*	*	*	*	*	*	*	*	*	*	*
8G\	.	.	16f/LL	.	(16a/LL	.	.	.	4cc\	-son,	.	.	.	.	.	.	.	.	.
.	.	.	16g/	.	16b-/)	.	.	.	.	.	.	.	.	.	.	.	.	.	.
8G\J	.	.	16a/	.	16cc/|	.	.	.	.	.	.	.	.	.	.	.	.	.	.
.	.	.	16a/JJ	.	16cc/|JJ	.	.	.	.	.	.	.	.	.	.	.	.	.	.
*Xtremolo	*	*	*Xrep	*	*	*	*	*	*	*	*	*	*	*	*	*	*	*	*
*	*	*	*rep	*	*	*	*	*	*	*	*	*	*	*	*	*	*	*	*
8A\L	6 3	.	16f/LL	.	(16a/LL	.	.	.	16r	.	.	.	.	.	.	.	.	.	.
.	.	.	16g/	.	16b-/)	.	.	.	16cc\LL	e-	.	.	.	.	.	.	.	.	.
8A\J	.	.	16a/	.	16cc/|	.	.	.	16ff\	.	.	.	.	.	.	.	.	.	.
.	.	.	16a/JJ	.	16cc/|JJ	.	.	.	16aa\JJ	.	.	.	.	.	.	.	.	.	.
*	*	*	*Xrep	*	*	*	*	*	*	*	*	*	*	*	*	*	*	*	*
=38	=38	=38	=38	=38	=38	=38	=38	=38	=38	=38	=38	=38	=38	=38	=38	=38	=38	=38	=38
*tremolo	*	*	*tremolo	*	*tremolo	*	*	*	*	*	*	*	*	*	*	*	*	*	*
8B-\L	6 3	.	8g/L	.	8dd\L	.	2.ryy	2.ryy	16aa\LL	.	2.ryy	2.ryy	2.ryy	2.ryy	2.ryy	.	.	.	.
.	.	.	.	.	.	.	.	.	16gg\	.	.	.	.	.	.	.	.	.	.
8B-\	.	.	8g/	.	8dd\	.	.	.	16gg\	.	.	.	.	.	.	.	.	.	.
.	.	.	.	.	.	.	.	.	16aa\JJ	.	.	.	.	.	.	.	.	.	.
8B-\	.	.	8g/	.	8dd\	.	.	.	8.bb-X\L	.	.	.	.	.	.	.	.	.	.
8B-\J	.	.	8g/	.	8dd\	.	.	.	.	.	.	.	.	.	.	.	.	.	.
.	.	.	.	.	.	.	.	.	16aa\Jk	.	.	.	.	.	.	.	.	.	.
*Xtremolo	*	*	*	*	*	*	*	*	*	*	*	*	*	*	*	*	*	*	*
8Bn\L	5 3	.	8g/	.	8dd\	.	.	.	16aa\LL	.	.	.	.	.	.	.	.	.	.
.	.	.	.	.	.	.	.	.	16gg\	.	.	.	.	.	.	.	.	.	.
8B\J	.	.	8g/J	.	8dd\J	.	.	.	16gg\	.	.	.	.	.	.	.	.	.	.
.	.	.	.	.	.	.	.	.	16ff\JJ	.	.	.	.	.	.	.	.	.	.
*	*	*	*Xtremolo	*	*Xtremolo	*	*	*	*	*	*	*	*	*	*	*	*	*	*
!LO:LB:g=original	!	!	!	!	!	!	!	!	!LO:LB:g=original	!	!	!	!	!	!	!	!	!	!
=39	=39	=39	=39	=39	=39	=39	=39	=39	=39	=39	=39	=39	=39	=39	=39	=39	=39	=39	=39
4c\	6 4	.	4f/	.	4a/	.	2.ryy	2.ryy	4ff\	-lei-	2.ryy	2.ryy	2.ryy	2.ryy	2.ryy	4r	4r	4r	4r
4C/	5 3	.	4e/	.	4g/	.	.	.	4ee\	-son	.	.	.	.	.	8r	8r	8r	8r
.	.	.	.	.	.	.	.	.	.	.	.	.	.	.	.	8ee\L	8gg\L	8ee\L	8gg\L
4r	.	.	4r	.	4r	.	.	.	4r	.	.	.	.	.	.	8ff\	8aa\	8ff\	8aa\
.	.	.	.	.	.	.	.	.	.	.	.	.	.	.	.	8gg\J	8bb-\J	8gg\J	8bb-\J
=40	=40	=40	=40	=40	=40	=40	=40	=40	=40	=40	=40	=40	=40	=40	=40	=40	=40	=40	=40
8F\L	3	.	4a 4f/	.	4ff\	.	2.ryy	2.ryy	4r	.	2.ryy	2.ryy	2.ryy	2.ryy	2.ryy	8.aa\L	8.ccc\L	8.aa\L	8.ccc\L
8C\	.	.	.	.	.	.	.	.	.	.	.	.	.	.	.	.	.	.	.
.	.	.	.	.	.	.	.	.	.	.	.	.	.	.	.	16ff\Jk	16aa\Jk	16ff\Jk	16aa\Jk
8G\	6_ 3_	.	4b- 4g/	.	16ee\LL	.	.	.	8r	.	.	.	.	.	.	4gg\	4bb-\	4gg\	4bb-\
.	.	.	.	.	16ff\	.	.	.	.	.	.	.	.	.	.	.	.	.	.
8C\	.	.	.	.	16gg\	.	.	.	8cc\L	e-	.	.	.	.	.	.	.	.	.
.	.	.	.	.	16ff\JJ	.	.	.	.	.	.	.	.	.	.	.	.	.	.
8G\	.	.	4r	.	16ee\LL	.	.	.	8dd\	.	.	.	.	.	.	8r	8r	8r	8r
.	.	.	.	.	16dd\	.	.	.	.	.	.	.	.	.	.	.	.	.	.
!	!	!	!	!	!	!	!	!	!	!	!	!	!	!	!	!	!LO:TX:b:i:t=Volti ſubito	!	!
8C\J	.	.	.	.	16cc\	.	.	.	8ee\J	.	.	.	.	.	.	8ee\	8gg\	8ee\	8gg\
.	.	.	.	.	16b-\JJ	.	.	.	.	.	.	.	.	.	.	.	.	.	.
!	!	!	!	!	!	!	!	!	!	!	!	!	!	!	!	!LO:LB:g=original	!LO:PB:g=original	!	!
=41	=41	=41	=41	=41	=41	=41	=41	=41	=41	=41	=41	=41	=41	=41	=41	=41	=41	=41	=41
!	!	!	!	!	!	!	!	!	!	!	!	!	!	!	!	!	!	!LO:TX:t=P:problem=mixed beam	!
8F\L	x 3	.	4a 4f/	.	4a/	.	2.ryy	2.ryy	8.ff\L	-lei-	2.ryy	2.ryy	2.ryy	2.ryy	2.ryy	8.a\L	8.ff\L	8.a/L	8.ff\L
8C\	.	.	.	.	.	.	.	.	.	.	.	.	.	.	.	.	.	.	.
.	.	.	.	.	.	.	.	.	16aa\Jk	.	.	.	.	.	.	16ee\Jk	16aa\Jk	16ee\Jk	16aa\Jk
8E\	6_ 3_	.	4g 4c/	.	8g/L	.	.	.	4gg\	-son	.	.	.	.	.	8ee\L	8gg\L	8ee\L	8gg\L
8C\	.	.	.	.	8cc/	.	.	.	.	.	.	.	.	.	.	8ee\	8gg\	8ee\	8gg\
8E\	.	.	4r	.	8cc/	.	.	.	4r	.	.	.	.	.	.	8ff\	8aa\	8ff\	8aa\
!	!	!	!	!	!	!	!	!	!	!	!	!	!	!	!	!	!	!LO:TX:b:i:t=Volti ſubito	!
8C\J	.	.	.	.	8cc/J	.	.	.	.	.	.	.	.	.	.	8gg\J	8bb-\J	8gg\J	8bb-\J
!	!	!	!	!	!	!	!	!	!	!	!	!	!	!	!	!	!	!LO:PB:g=original	!
=42	=42	=42	=42	=42	=42	=42	=42	=42	=42	=42	=42	=42	=42	=42	=42	=42	=42	=42	=42
8F\L	x 3	.	4a 4f/	.	4ff\	.	2.ryy	2.ryy	4r	.	2.ryy	2.ryy	2.ryy	2.ryy	2.ryy	8.aa\L	8.ccc\L	8.aa\L	8.ccc\L
8C\	.	.	.	.	.	.	.	.	.	.	.	.	.	.	.	.	.	.	.
.	.	.	.	.	.	.	.	.	.	.	.	.	.	.	.	16ff\Jk	16aa\Jk	16ff\Jk	16aa\Jk
8G\	6_ 3	.	4b- 4g/	.	16ee\LL	.	.	.	8r	.	.	.	.	.	.	4gg\	4bb-\	4gg\	4bb-\
.	.	.	.	.	16ff\	.	.	.	.	.	.	.	.	.	.	.	.	.	.
8C\	.	.	.	.	16gg\	.	.	.	8cc\L	e-	.	.	.	.	.	.	.	.	.
.	.	.	.	.	16ff\JJ	.	.	.	.	.	.	.	.	.	.	.	.	.	.
8G\	_ 3	.	4r	.	16ee\LL	.	.	.	8dd\	.	.	.	.	.	.	8r	8r	8r	8r
.	.	.	.	.	16dd\	.	.	.	.	.	.	.	.	.	.	.	.	.	.
!	!	!	!	!	!	!	!	!	!	!	!	!	!	!	!	!	!	!	!LO:TX:b:i:t=Volti ſubito
8C\J	.	.	.	.	16cc\	.	.	.	8ee\J	.	.	.	.	.	.	8ee\	8gg\	8ee\	8gg\
.	.	.	.	.	16b-\JJ	.	.	.	.	.	.	.	.	.	.	.	.	.	.
!	!	!	!	!	!	!	!	!	!	!	!	!	!	!	!	!	!	!	!LO:PB:g=original
=43	=43	=43	=43	=43	=43	=43	=43	=43	=43	=43	=43	=43	=43	=43	=43	=43	=43	=43	=43
!	!	!	!	!	!	!	!	!	!	!	!	!	!	!	!	!	!	!LO:TX:t=P:problem=mixed beam	!
8F\L	x 3	.	4a 4f/	.	4a/	.	2.ryy	2.ryy	8.ff\L	-lei-	2.ryy	2.ryy	2.ryy	2.ryy	2.ryy	8.a\L	8.ff\L	8.a/L	8.ff\L
8C\	.	.	.	.	.	.	.	.	.	.	.	.	.	.	.	.	.	.	.
.	.	.	.	.	.	.	.	.	16aa\Jk	.	.	.	.	.	.	16ff\Jk	16aa\Jk	16ff\Jk	16aa\Jk
8E\	6_ 3	.	4g 4c/	.	4g/	.	.	.	8gg\	-son	.	.	.	.	.	4ee\	4gg\	4ee\	4gg\
8C\	.	.	.	.	.	.	.	.	8cc'\	Chri-	.	.	.	.	.	.	.	.	.
8E\	_ 3	.	4r	.	4r	.	.	.	8cc'\	-ſte	.	.	.	.	.	4r	4r	4r	4r
8C\J	X X	.	.	.	.	.	.	.	8cc'\	e-	.	.	.	.	.	.	.	.	.
=44	=44	=44	=44	=44	=44	=44	=44	=44	=44	=44	=44	=44	=44	=44	=44	=44	=44	=44	=44
!	!	!	!	!	!	!	!	!	!	!	!	!	!	!	!	!LO:TX:a:t=13.	!LO:TX:a:t=13.	!LO:TX:a:t=13.	!LO:TX:a:t=13.
8F\L	.	.	8a\L	.	8cc\L	.	2.ryy	2.ryy	4ff\	-lei-	2.ryy	2.ryy	2.ryy	2.ryy	2.ryy	0.r	0.r	0.r	0.r
8A\J	6 3	.	8cc\J	.	8ff\	.	.	.	.	.	.	.	.	.	.	.	.	.	.
*tremolo	*	*	*tremolo	*	*	*	*	*	*	*	*	*	*	*	*	*	*	*	*
8A\L	.	.	8cc\L	.	8ff\	.	.	.	16ff\LL	.	.	.	.	.	.	.	.	.	.
.	.	.	.	.	.	.	.	.	16ee\	.	.	.	.	.	.	.	.	.	.
8A\	.	.	8cc\	.	8ff\	.	.	.	16ff\	.	.	.	.	.	.	.	.	.	.
.	.	.	.	.	.	.	.	.	16ee\JJ	.	.	.	.	.	.	.	.	.	.
8A\	.	.	8cc\	.	8ee-X\	.	.	.	16ff\LL	.	.	.	.	.	.	.	.	.	.
.	.	.	.	.	.	.	.	.	16ccc\	.	.	.	.	.	.	.	.	.	.
8A\J	.	.	8cc\J	.	8ee-\J	.	.	.	16aa\	.	.	.	.	.	.	.	.	.	.
.	.	.	.	.	.	.	.	.	16ff#\JJ	.	.	.	.	.	.	.	.	.	.
*	*	*	*Xtremolo	*	*	*	*	*	*	*	*	*	*	*	*	*	*	*	*
!	!	!	!	!	!LO:LB:g=original	!	!	!	!LO:LB:g=original	!	!	!	!	!	!	!	!	!	!
=45	=45	=45	=45	=45	=45	=45	=45	=45	=45	=45	=45	=45	=45	=45	=45	=45	=45	=45	=45
8B-\L	6 3	.	8b-\L	.	8dd\L	.	2.ryy	2.ryy	4gg\	.	2.ryy	2.ryy	2.ryy	2.ryy	2.ryy	.	.	.	.
8B-\	.	.	8dd\J	.	8gg\J	.	.	.	.	.	.	.	.	.	.	.	.	.	.
*	*	*	*tremolo	*	*tremolo	*	*	*	*	*	*	*	*	*	*	*	*	*	*
8B-\	.	.	8dd\L	.	8gg\L	.	.	.	16gg\LL	.	.	.	.	.	.	.	.	.	.
.	.	.	.	.	.	.	.	.	16ff#X\	.	.	.	.	.	.	.	.	.	.
8B-\	.	.	8dd\	.	8gg\	.	.	.	16gg\	.	.	.	.	.	.	.	.	.	.
.	.	.	.	.	.	.	.	.	16aa\JJ	.	.	.	.	.	.	.	.	.	.
8B-\	.	.	8dd\	.	8gg\	.	.	.	16bb-\LL	.	.	.	.	.	.	.	.	.	.
.	.	.	.	.	.	.	.	.	16aa\	.	.	.	.	.	.	.	.	.	.
8B-\J	.	.	8dd\J	.	8gg\J	.	.	.	16bb-\	.	.	.	.	.	.	.	.	.	.
.	.	.	.	.	.	.	.	.	16gg\JJ	.	.	.	.	.	.	.	.	.	.
=46	=46	=46	=46	=46	=46	=46	=46	=46	=46	=46	=46	=46	=46	=46	=46	=46	=46	=46	=46
8c\L	6 4	.	8a/L	.	8ff\L	.	2.ryy	2.ryy	16ffn\LL	.	2.ryy	2.ryy	2.ryy	2.ryy	2.ryy	.	.	.	.
.	.	.	.	.	.	.	.	.	16ee\	.	.	.	.	.	.	.	.	.	.
8c\	.	.	8a/	.	8ff\	.	.	.	16ff\	.	.	.	.	.	.	.	.	.	.
.	.	.	.	.	.	.	.	.	16cc\JJ	.	.	.	.	.	.	.	.	.	.
8c\	.	.	8a/	.	8ff\	.	.	.	4aa\	.	.	.	.	.	.	.	.	.	.
8c\J	.	.	8a/J	.	8ff\J	.	.	.	.	.	.	.	.	.	.	.	.	.	.
*Xtremolo	*	*	*Xtremolo	*	*Xtremolo	*	*	*	*	*	*	*	*	*	*	*	*	*	*
8C/L	7 3	.	8g/L	.	8een\L	.	.	.	4gg\	.	.	.	.	.	.	.	.	.	.
8C/J	.	.	8g/J	.	8ee\J	.	.	.	.	.	.	.	.	.	.	.	.	.	.
!	!	!	!LO:LB:g=original	!	!	!	!	!	!	!	!	!	!	!	!	!	!	!	!
=47	=47	=47	=47	=47	=47	=47	=47	=47	=47	=47	=47	=47	=47	=47	=47	=47	=47	=47	=47
8F\L	.	.	8a\L	.	8cc\L	.	2.ryy	2.ryy	4ff\	.	2.ryy	2.ryy	2.ryy	2.ryy	2.ryy	.	.	.	.
8A\J	.	.	8cc\J	.	8ff\	.	.	.	.	.	.	.	.	.	.	.	.	.	.
*tremolo	*	*	*tremolo	*	*	*	*	*	*	*	*	*	*	*	*	*	*	*	*
8A\L	.	.	8cc\L	.	8ff\	.	.	.	16ff\LL	.	.	.	.	.	.	.	.	.	.
.	.	.	.	.	.	.	.	.	16ee\	.	.	.	.	.	.	.	.	.	.
8A\	.	.	8cc\	.	8ff\	.	.	.	16ff\	.	.	.	.	.	.	.	.	.	.
.	.	.	.	.	.	.	.	.	16ee\JJ	.	.	.	.	.	.	.	.	.	.
8A\	.	.	8cc\	.	8ee-X\	.	.	.	16ff\LL	.	.	.	.	.	.	.	.	.	.
.	.	.	.	.	.	.	.	.	16ccc\	.	.	.	.	.	.	.	.	.	.
8A\J	.	.	8cc\J	.	8ee-\J	.	.	.	16aa\	.	.	.	.	.	.	.	.	.	.
.	.	.	.	.	.	.	.	.	16ff#X\JJ	.	.	.	.	.	.	.	.	.	.
*	*	*	*Xtremolo	*	*	*	*	*	*	*	*	*	*	*	*	*	*	*	*
!LO:LB:g=original	!	!	!	!	!	!	!	!	!	!	!	!	!	!	!	!	!	!	!
=48	=48	=48	=48	=48	=48	=48	=48	=48	=48	=48	=48	=48	=48	=48	=48	=48	=48	=48	=48
8B-\L	6 3	.	8b-\L	.	8dd\L	.	2.ryy	2.ryy	4gg\	.	2.ryy	2.ryy	2.ryy	2.ryy	2.ryy	0.r	0.r	0.r	0.r
8B-\	.	.	8dd\J	.	8gg\J	.	.	.	.	.	.	.	.	.	.	.	.	.	.
*	*	*	*tremolo	*	*tremolo	*	*	*	*	*	*	*	*	*	*	*	*	*	*
8B-\	.	.	8dd\L	.	8gg\L	.	.	.	16gg\LL	.	.	.	.	.	.	.	.	.	.
.	.	.	.	.	.	.	.	.	16ff#X\	.	.	.	.	.	.	.	.	.	.
8B-\	.	.	8dd\	.	8gg\	.	.	.	16gg\	.	.	.	.	.	.	.	.	.	.
.	.	.	.	.	.	.	.	.	16aa\JJ	.	.	.	.	.	.	.	.	.	.
8B-\	.	.	8dd\	.	8gg\	.	.	.	16bb-\LL	.	.	.	.	.	.	.	.	.	.
.	.	.	.	.	.	.	.	.	16aa\	.	.	.	.	.	.	.	.	.	.
8B-\J	.	.	8dd\J	.	8gg\J	.	.	.	16bb-\	.	.	.	.	.	.	.	.	.	.
.	.	.	.	.	.	.	.	.	16gg\JJ	.	.	.	.	.	.	.	.	.	.
=49	=49	=49	=49	=49	=49	=49	=49	=49	=49	=49	=49	=49	=49	=49	=49	=49	=49	=49	=49
8c\L	6 4	.	8a/L	.	8ff\L	.	2.ryy	2.ryy	16ffn\LL	.	2.ryy	2.ryy	2.ryy	2.ryy	2.ryy	.	.	.	.
.	.	.	.	.	.	.	.	.	16ee\	.	.	.	.	.	.	.	.	.	.
8c\	.	.	8a/	.	8ff\	.	.	.	16ff\	.	.	.	.	.	.	.	.	.	.
.	.	.	.	.	.	.	.	.	16ee\JJ	.	.	.	.	.	.	.	.	.	.
8c\	.	.	8a/	.	8ff\	.	.	.	4aa\	.	.	.	.	.	.	.	.	.	.
8c\J	.	.	8a/J	.	8ff\J	.	.	.	.	.	.	.	.	.	.	.	.	.	.
*Xtremolo	*	*	*Xtremolo	*	*Xtremolo	*	*	*	*	*	*	*	*	*	*	*	*	*	*
8C/L	7 5	.	8g/L	.	8een\L	.	.	.	4gg\	.	.	.	.	.	.	.	.	.	.
8C/J	.	.	8g/J	.	8ee\J	.	.	.	.	.	.	.	.	.	.	.	.	.	.
!	!	!	!	!	!	!	!	!	!LO:LB:g=original	!	!	!	!	!	!	!	!	!	!
=50	=50	=50	=50	=50	=50	=50	=50	=50	=50	=50	=50	=50	=50	=50	=50	=50	=50	=50	=50
*tremolo	*	*	*	*	*	*	*	*	*	*	*	*	*	*	*	*	*	*	*
8F\L	.	.	16c/LL	.	16ff\LL	.	2.ryy	2.ryy	4ff\	-son.	2.ryy	2.ryy	2.ryy	2.ryy	2.ryy	.	.	.	.
.	.	.	16f/	.	16aa\	.	.	.	.	.	.	.	.	.	.	.	.	.	.
8F\	.	.	16a/	.	16ff\	.	.	.	.	.	.	.	.	.	.	.	.	.	.
.	.	.	16f/JJ	.	16dd\JJ	.	.	.	.	.	.	.	.	.	.	.	.	.	.
*	*	*	*rep	*	*	*	*	*	*	*	*	*	*	*	*	*	*	*	*
8F\	.	.	16c/LL	.	4cc\	.	.	.	4r	.	.	.	.	.	.	.	.	.	.
.	.	.	16f/	.	.	.	.	.	.	.	.	.	.	.	.	.	.	.	.
8F\J	.	.	16a/	.	.	.	.	.	.	.	.	.	.	.	.	.	.	.	.
.	.	.	16f/JJ	.	.	.	.	.	.	.	.	.	.	.	.	.	.	.	.
*Xtremolo	*	*	*Xrep	*	*	*	*	*	*	*	*	*	*	*	*	*	*	*	*
8E\L	6 3	.	16c/LL	.	16g/LL	.	.	.	4r	.	.	.	.	.	.	.	.	.	.
.	.	.	16e/	.	16cc/	.	.	.	.	.	.	.	.	.	.	.	.	.	.
8E\J	.	.	16g/	.	16b-/	.	.	.	.	.	.	.	.	.	.	.	.	.	.
.	.	.	16e/JJ	.	16a/JJ	.	.	.	.	.	.	.	.	.	.	.	.	.	.
=51	=51	=51	=51	=51	=51	=51	=51	=51	=51	=51	=51	=51	=51	=51	=51	=51	=51	=51	=51
*tremolo	*	*	*	*	*	*	*	*	*	*	*	*	*	*	*	*	*	*	*
!	!	!	!	!	!	!	!	!	!LO:TX:a:t=9.	!	!	!	!	!	!	!	!	!	!
8F\L	.	.	16c/LL	.	16b-/LL	.	2.ryy	2.ryy	0.r	.	2.ryy	2.ryy	2.ryy	2.ryy	2.ryy	.	.	.	.
.	.	.	16f/	.	16a/	.	.	.	.	.	.	.	.	.	.	.	.	.	.
8F\	.	.	16a/	.	16g/	.	.	.	.	.	.	.	.	.	.	.	.	.	.
.	.	.	16f/JJ	.	16f/JJ	.	.	.	.	.	.	.	.	.	.	.	.	.	.
*	*	*	*rep	*	*	*	*	*	*	*	*	*	*	*	*	*	*	*	*
8F\	.	.	16c/LL	.	4.f/	.	.	.	.	.	.	.	.	.	.	.	.	.	.
.	.	.	16f/	.	.	.	.	.	.	.	.	.	.	.	.	.	.	.	.
8F\	.	.	16a/	.	.	.	.	.	.	.	.	.	.	.	.	.	.	.	.
.	.	.	16f/JJ	.	.	.	.	.	.	.	.	.	.	.	.	.	.	.	.
*	*	*	*Xrep	*	*	*	*	*	*	*	*	*	*	*	*	*	*	*	*
*	*	*	*rep	*	*	*	*	*	*	*	*	*	*	*	*	*	*	*	*
8F\	.	.	16c/LL	.	.	.	.	.	.	.	.	.	.	.	.	.	.	.	.
.	.	.	16f/	.	.	.	.	.	.	.	.	.	.	.	.	.	.	.	.
8F\J	.	.	16a/	.	(16a\LL	.	.	.	.	.	.	.	.	.	.	.	.	.	.
.	.	.	16f/JJ	.	16cc\JJ)	.	.	.	.	.	.	.	.	.	.	.	.	.	.
*	*	*	*Xrep	*	*	*	*	*	*	*	*	*	*	*	*	*	*	*	*
=52	=52	=52	=52	=52	=52	=52	=52	=52	=52	=52	=52	=52	=52	=52	=52	=52	=52	=52	=52
!	!	!	!	!	!	!	!	!	!	!	!	!	!	!	!	!	!	!	!
8F\L	6 4	.	16d/LL	.	16cc#X\LL	.	2.ryy	2.ryy	.	.	2.ryy	2.ryy	2.ryy	2.ryy	2.ryy	0.r	0.r	0.r	0.r
.	.	.	16f/	.	16dd\JJ	.	.	.	.	.	.	.	.	.	.	.	.	.	.
8F\	.	.	16b-/	.	4dd\	.	.	.	.	.	.	.	.	.	.	.	.	.	.
.	.	.	16f/JJ	.	.	.	.	.	.	.	.	.	.	.	.	.	.	.	.
*	*	*	*rep	*	*	*	*	*	*	*	*	*	*	*	*	*	*	*	*
8F\	.	.	16d/LL	.	.	.	.	.	.	.	.	.	.	.	.	.	.	.	.
.	.	.	16f/	.	.	.	.	.	.	.	.	.	.	.	.	.	.	.	.
8F\	.	.	16b-/	.	16ee\LL	.	.	.	.	.	.	.	.	.	.	.	.	.	.
.	.	.	16f/JJ	.	16ff\JJ	.	.	.	.	.	.	.	.	.	.	.	.	.	.
*	*	*	*Xrep	*	*	*	*	*	*	*	*	*	*	*	*	*	*	*	*
*	*	*	*rep	*	*	*	*	*	*	*	*	*	*	*	*	*	*	*	*
8F\	.	.	16d/LL	.	16gg\LL	.	.	.	.	.	.	.	.	.	.	.	.	.	.
.	.	.	16f/	.	16aa\	.	.	.	.	.	.	.	.	.	.	.	.	.	.
8F\J	.	.	16b-/	.	16bb-\	.	.	.	.	.	.	.	.	.	.	.	.	.	.
.	.	.	16f/JJ	.	16dd\JJ	.	.	.	.	.	.	.	.	.	.	.	.	.	.
*	*	*	*Xrep	*	*	*	*	*	*	*	*	*	*	*	*	*	*	*	*
!	!	!	!	!	!LO:LB:g=original	!	!	!	!	!	!	!	!	!	!	!	!	!	!
=53	=53	=53	=53	=53	=53	=53	=53	=53	=53	=53	=53	=53	=53	=53	=53	=53	=53	=53	=53
8F\L	6 4	.	16c/LL	.	16bn\LL	.	2.ryy	2.ryy	.	.	2.ryy	2.ryy	2.ryy	2.ryy	2.ryy	.	.	.	.
.	5 3	.	16f/	.	16dd\	.	.	.	.	.	.	.	.	.	.	.	.	.	.
8F\	.	.	16a/	.	16dd\	.	.	.	.	.	.	.	.	.	.	.	.	.	.
.	.	.	16f/JJ	.	16cc\JJ	.	.	.	.	.	.	.	.	.	.	.	.	.	.
*	*	*	*rep	*	*	*	*	*	*	*	*	*	*	*	*	*	*	*	*
8F\	.	.	16c/LL	.	4cc\	.	.	.	.	.	.	.	.	.	.	.	.	.	.
.	.	.	16f/	.	.	.	.	.	.	.	.	.	.	.	.	.	.	.	.
8F\J	.	.	16a/	.	.	.	.	.	.	.	.	.	.	.	.	.	.	.	.
.	.	.	16f/XrepJJ	.	.	.	.	.	.	.	.	.	.	.	.	.	.	.	.
*Xtremolo	*	*	*Xrep	*	*	*	*	*	*	*	*	*	*	*	*	*	*	*	*
*	*	*	*rep	*	*	*	*	*	*	*	*	*	*	*	*	*	*	*	*
8A\L	6 3	.	16c/LIL	.	16cc\LL	.	.	.	.	.	.	.	.	.	.	.	.	.	.
.	.	.	16f/	.	16ff\	.	.	.	.	.	.	.	.	.	.	.	.	.	.
8A\J	.	.	16a/	.	16aa\	.	.	.	.	.	.	.	.	.	.	.	.	.	.
.	.	.	16f/JJ	.	16ccc\JJ	.	.	.	.	.	.	.	.	.	.	.	.	.	.
*	*	*	*Xrep	*	*	*	*	*	*	*	*	*	*	*	*	*	*	*	*
=54	=54	=54	=54	=54	=54	=54	=54	=54	=54	=54	=54	=54	=54	=54	=54	=54	=54	=54	=54
*tremolo	*	*	*	*	*	*	*	*	*	*	*	*	*	*	*	*	*	*	*
8G\L	6 3	.	16B-/LL	.	16ccc\LL	.	2.ryy	2.ryy	.	.	2.ryy	2.ryy	2.ryy	2.ryy	2.ryy	.	.	.	.
.	.	.	16c/	.	16bb-\	.	.	.	.	.	.	.	.	.	.	.	.	.	.
8G\	.	.	16e/	.	16aa\	.	.	.	.	.	.	.	.	.	.	.	.	.	.
.	.	.	16c/JJ	.	16gg\JJ	.	.	.	.	.	.	.	.	.	.	.	.	.	.
*	*	*	*rep	*	*	*	*	*	*	*	*	*	*	*	*	*	*	*	*
8G\	.	.	16B-/LL	.	16ff#X\LL	.	.	.	.	.	.	.	.	.	.	.	.	.	.
.	.	.	16c/	.	16gg\	.	.	.	.	.	.	.	.	.	.	.	.	.	.
8G\J	.	.	16e/	.	16bb-\	.	.	.	.	.	.	.	.	.	.	.	.	.	.
.	.	.	16c/JJ	.	16gg\JJ	.	.	.	.	.	.	.	.	.	.	.	.	.	.
*Xtremolo	*	*	*Xrep	*	*	*	*	*	*	*	*	*	*	*	*	*	*	*	*
8C/L	.	.	16B-/LL	.	16dd\LL	.	.	.	.	.	.	.	.	.	.	.	.	.	.
.	.	.	16A/	.	16ff#\	.	.	.	.	.	.	.	.	.	.	.	.	.	.
8C/J	.	.	16G/	.	16ee\	.	.	.	.	.	.	.	.	.	.	.	.	.	.
.	.	.	16B-/JJ	.	16gg\JJ	.	.	.	.	.	.	.	.	.	.	.	.	.	.
!	!	!	!LO:LB:g=original	!	!	!	!	!	!	!	!	!	!	!	!	!	!	!	!
=55	=55	=55	=55	=55	=55	=55	=55	=55	=55	=55	=55	=55	=55	=55	=55	=55	=55	=55	=55
!LO:TX:t=P:problem=mixed beam	!	!	!	!	!	!	!	!	!	!	!	!	!	!	!	!	!	!	!
8F\L	.	.	16A/LL	.	8.ff\L	.	2.ryy	2.ryy	0.r	.	2.ryy	2.ryy	2.ryy	2.ryy	2.ryy	.	.	.	.
.	.	.	16c/	.	.	.	.	.	.	.	.	.	.	.	.	.	.	.	.
8AA/J	6_ 3_	.	16f/	.	.	.	.	.	.	.	.	.	.	.	.	.	.	.	.
.	.	.	16c/JJ	.	16gg\Jk	.	.	.	.	.	.	.	.	.	.	.	.	.	.
*tremolo	*	*	*rep	*	*	*	*	*	*	*	*	*	*	*	*	*	*	*	*
8AA/L	.	.	16A/LL	.	16ff\LL	.	.	.	.	.	.	.	.	.	.	.	.	.	.
.	.	.	16c/	.	16gg\	.	.	.	.	.	.	.	.	.	.	.	.	.	.
8AA/	.	.	16f/	.	16aa\	.	.	.	.	.	.	.	.	.	.	.	.	.	.
.	.	.	16c/JJ	.	16bb-\JJ	.	.	.	.	.	.	.	.	.	.	.	.	.	.
*	*	*	*Xrep	*	*	*	*	*	*	*	*	*	*	*	*	*	*	*	*
*	*	*	*rep	*	*	*	*	*	*	*	*	*	*	*	*	*	*	*	*
8AA/	.	.	16A/LL	.	16ccc\LL	.	.	.	.	.	.	.	.	.	.	.	.	.	.
.	.	.	16c/	.	16ddd\	.	.	.	.	.	.	.	.	.	.	.	.	.	.
8AA/J	.	.	16f/	.	16eee\	.	.	.	.	.	.	.	.	.	.	.	.	.	.
.	.	.	16c/JJ	.	16fff\JJ	.	.	.	.	.	.	.	.	.	.	.	.	.	.
*	*	*	*Xrep	*	*	*	*	*	*	*	*	*	*	*	*	*	*	*	*
=56	=56	=56	=56	=56	=56	=56	=56	=56	=56	=56	=56	=56	=56	=56	=56	=56	=56	=56	=56
8BB-/L	5 3	.	16B-/LL	.	16fff\LL	.	2.ryy	2.ryy	.	.	2.ryy	2.ryy	2.ryy	2.ryy	2.ryy	2.r	2.r	2.r	2.r
.	.	.	16b-/	.	16ddd\	.	.	.	.	.	.	.	.	.	.	.	.	.	.
8BB-/	.	.	16b-/	.	16ddd\	.	.	.	.	.	.	.	.	.	.	.	.	.	.
.	.	.	16g/JJ	.	16bb-\JJ	.	.	.	.	.	.	.	.	.	.	.	.	.	.
8BB-/	.	.	16dd\LL	.	16bb-\LL	.	.	.	.	.	.	.	.	.	.	.	.	.	.
.	.	.	16b-\	.	16gg\	.	.	.	.	.	.	.	.	.	.	.	.	.	.
8BB-/J	.	.	16b-\	.	16gg\	.	.	.	.	.	.	.	.	.	.	.	.	.	.
.	.	.	16cc\JJ	.	16aa\JJ	.	.	.	.	.	.	.	.	.	.	.	.	.	.
*Xtremolo	*	*	*	*	*	*	*	*	*	*	*	*	*	*	*	*	*	*	*
8C/L	7 5	.	16dd\LL	.	16bb-\LL	.	.	.	.	.	.	.	.	.	.	.	.	.	.
.	.	.	16b-\	.	16gg\	.	.	.	.	.	.	.	.	.	.	.	.	.	.
8CC/J	.	.	16b-\	.	16dd\	.	.	.	.	.	.	.	.	.	.	.	.	.	.
.	.	.	16cc\JJ	.	16ee\JJ	.	.	.	.	.	.	.	.	.	.	.	.	.	.
!LO:LB:g=original	!	!	!	!	!	!	!	!	!	!	!	!	!	!	!	!	!	!	!
=57	=57	=57	=57	=57	=57	=57	=57	=57	=57	=57	=57	=57	=57	=57	=57	=57	=57	=57	=57
4FF/	.	.	4a/	.	4ff\	.	2.ryy	2.ryy	.	.	2.ryy	2.ryy	2.ryy	2.ryy	2.ryy	8r	8r	8r	8r
!	!	!	!	!	!	!	!	!	!	!	!	!	!	!	!	!LO:TX:a:i:t=Solo	!LO:TX:a:i:t=Solo	!	!
.	.	.	.	.	.	.	.	.	.	.	.	.	.	.	.	8ff\L	8aa\L	8ff\L	8aa\L
4r	.	.	4r	.	4r	.	.	.	.	.	.	.	.	.	.	8gg\	8bb-\	8gg\	8bb-\
.	.	.	.	.	.	.	.	.	.	.	.	.	.	.	.	8aa\	8ccc\	8aa\	8ccc\
4C/	.	.	4g 4c/	.	4ee 4b-\	.	.	.	.	.	.	.	.	.	.	8gg\	8bb-\	8gg\	8bb-\
.	.	.	.	.	.	.	.	.	.	.	.	.	.	.	.	8ff\J	8gg\J	8ff\J	8gg\J
!	!	!	!	!	!LO:LB:g=original	!	!	!	!	!	!	!	!	!	!	!	!	!	!
=58	=58	=58	=58	=58	=58	=58	=58	=58	=58	=58	=58	=58	=58	=58	=58	=58	=58	=58	=58
4F\	.	.	4a 4f/	.	4ff\	.	2.ryy	2.ryy	.	.	2.ryy	2.ryy	2.ryy	2.ryy	2.ryy	8ff\L	8aa\L	8ff\L	8aa\L
.	.	.	.	.	.	.	.	.	.	.	.	.	.	.	.	8a\	8ff\	8a\	8ff\
4r	.	.	4r	.	4r	.	.	.	.	.	.	.	.	.	.	8b-\	8gg\	8b-\	8gg\
.	.	.	.	.	.	.	.	.	.	.	.	.	.	.	.	8cc\	8aa\	8cc\	8aa\
4C/	.	.	4g 4c/	.	4ee 4b-\	.	.	.	.	.	.	.	.	.	.	8b-\	8gg\	8b-\	8gg\
!	!	!	!	!	!	!	!	!	!	!	!	!	!	!	!	!	!	!LO:TX:t=g	!
.	.	.	.	.	.	.	.	.	.	.	.	.	.	.	.	8g\J	8ee\J	8g\J	8ee\J
!	!	!	!	!	!	!	!	!	!	!	!	!	!	!	!	!	!LO:LB:g=original	!	!
=59	=59	=59	=59	=59	=59	=59	=59	=59	=59	=59	=59	=59	=59	=59	=59	=59	=59	=59	=59
4F\	.	.	4a 4f/	.	4ff 4a\	.	2.ryy	2.ryy	2.r	.	2.ryy	2.ryy	2.ryy	2.ryy	2.ryy	8a\L	8ff\L	8a\L|	8ff\L
.	.	.	.	.	.	.	.	.	.	.	.	.	.	.	.	16cc\L	16aa\L	(16cc\L	16aa\L
.	.	.	.	.	.	.	.	.	.	.	.	.	.	.	.	16b-\JJ	16gg\JJ	16b-\JJ)	16gg\JJ
4FF/	.	.	4a 4f/	.	4f/	.	.	.	.	.	.	.	.	.	.	4a\	4ff\	4a\	4ff\
!LO:TX:b:i:t=Kyrie Da Capo.	!	!	!LO:TX:b:i:t=Kyrie Da Capo.	!	!LO:TX:b:i:t=Kyrie Da Capo.	!	!LO:TX:b:i:t=Kyrie Da Capo.	!LO:TX:b:i:t=Kyrie Da Capo.	!LO:TX:b:i:t=Kyrie Da Capo.	!	!LO:TX:b:i:t=Kyrie Da Capo.	!LO:TX:b:i:t=Kyrie Da Capo.	!LO:TX:b:i:t=Kyrie \nD&colon; C&colon;	!LO:TX:b:i:t=Kyrie Da Capo	!	!LO:TX:b:i:t=Volti Gloria	!LO:TX:b:i:t=Kyrie Da Capo	!	!LO:TX:b:i:t=Kyrie Da Capo.
4r	.	.	4r	.	4r	.	.	.	.	.	.	.	.	.	.	4r	4r	4r	4r
==	==	==	==	==	==	==	==	==	==	==	==	==	==	==	==	==	==	==	==
*-	*-	*-	*-	*-	*-	*-	*-	*-	*-	*-	*-	*-	*-	*-	*-	*-	*-	*-	*-
!!!system-decoration: [(g1)][(g2)]<s9>[(g3)][(g4)]s15
!!!RDF**kern: | = vertical stroke
!!!ENC: Solarz Mateusz
!!!END: 2020-10-05
!!!ENC: Marta Lawrence
!!!END: 2022-02-03
